; generated by Slic3r 1.3.0-dev on 2018-08-27 at 11:18:10

; external perimeters extrusion width = 0.44mm (1.05mm^3/s)
; perimeters extrusion width = 0.56mm (2.69mm^3/s)
; infill extrusion width = 0.50mm (3.35mm^3/s)
; solid infill extrusion width = 0.56mm (1.08mm^3/s)
; top infill extrusion width = 0.56mm (0.81mm^3/s)
; support material extrusion width = 0.44mm (2.51mm^3/s)

M107
M190 S50 ; set bed temperature and wait for it to be reached
M104 S210 ; set temperature
G28 ; home all axes
G1 Z5 F5000 ; lift nozzle

; Filament gcode

M109 S210 ; set temperature and wait for it to be reached
G21 ; set units to millimeters
G90 ; use absolute coordinates
M82 ; use absolute distances for extrusion
G92 E0
G1 Z0.300 F7800.000
G1 E-4.00000 F2400.00000
G92 E0
G1 X93.546 Y83.019 F7800.000
G1 E4.00000 F2400.00000
G1 F900
G1 X95.158 Y81.409 E4.15217
G1 X97.224 Y80.451 E4.30434
G1 X98.899 Y80.232 E4.41722
G1 X103.801 Y80.232 E4.74465
G1 X106.044 Y80.629 E4.89682
G1 X107.135 Y81.147 E4.97750
G1 X107.958 Y81.662 E5.04238
G1 X108.372 Y81.967 E5.07676
G1 X109.444 Y82.826 E5.16848
G1 X109.977 Y83.304 E5.21635
G1 X110.258 Y83.585 E5.24287
G1 X110.826 Y84.209 E5.29923
G1 X111.123 Y84.566 E5.33024
G1 X111.420 Y84.949 E5.36270
G1 X111.833 Y85.533 E5.41046
G1 X112.765 Y87.612 E5.56263
G1 X112.962 Y89.122 E5.66441
G1 X113.036 Y94.805 E6.04409
G1 X113.035 Y105.610 E6.76593
G1 X112.962 Y109.903 E7.05276
G1 X112.527 Y112.139 E7.20494
G1 X111.442 Y113.985 E7.34798
G1 X110.370 Y115.266 E7.45956
G1 X109.977 Y115.696 E7.49846
G1 X109.615 Y116.040 E7.53182
G1 X108.935 Y116.622 E7.59161
G1 X108.121 Y117.228 E7.65941
G1 X106.848 Y117.901 E7.75561
G1 X103.472 Y119.234 E7.99813
G1 X101.541 Y119.674 E8.13042
G1 X100.000 Y119.768 E8.23356
G1 X96.924 Y119.720 E8.43910
G1 X94.687 Y119.287 E8.59127
G1 X92.706 Y118.087 E8.74599
G1 X90.023 Y115.696 E8.98611
G1 X89.461 Y115.117 E9.04000
G1 X88.877 Y114.434 E9.10001
G1 X88.579 Y114.050 E9.13246
G1 X88.167 Y113.466 E9.18022
G1 X87.601 Y112.448 E9.25806
G1 X86.529 Y110.039 E9.43420
G1 X86.124 Y108.811 E9.52059
G1 X85.949 Y107.973 E9.57780
G1 X85.873 Y107.492 E9.61033
G1 X85.776 Y106.601 E9.67023
G1 X85.732 Y105.519 E9.74251
G1 X85.732 Y103.238 E9.89493
G1 X85.919 Y101.685 E9.99942
G1 X87.152 Y96.647 E10.34589
G1 X87.279 Y96.198 E10.37707
G1 X89.494 Y89.314 E10.86018
G1 X90.361 Y87.567 E10.99048
G1 X93.512 Y83.068 E11.35740
G1 E7.35740 F2400.00000
G92 E0
G1 X102.494 Y109.064 F7800.000
G1 E4.00000 F2400.00000
G1 F900
G1 X102.207 Y109.369 E4.02804
G1 X101.736 Y109.735 E4.06789
G1 X101.192 Y110.012 E4.10862
G1 X100.607 Y110.182 E4.14935
G1 X100.013 Y110.238 E4.18920
G1 X99.594 Y110.212 E4.21724
G1 X99.182 Y110.133 E4.24528
G1 X98.621 Y109.931 E4.28513
G1 X98.096 Y109.621 E4.32586
G1 X97.639 Y109.217 E4.36659
G1 X97.265 Y108.736 E4.40732
G1 X96.988 Y108.192 E4.44805
G1 X96.818 Y107.607 E4.48878
G1 X96.761 Y107.000 E4.52951
G1 X96.818 Y106.393 E4.57024
G1 X96.988 Y105.808 E4.61097
G1 X97.265 Y105.264 E4.65171
G1 X97.639 Y104.783 E4.69244
G1 X98.096 Y104.379 E4.73317
G1 X98.621 Y104.069 E4.77390
G1 X99.182 Y103.867 E4.81375
G1 X99.594 Y103.788 E4.84174
G1 X99.996 Y103.762 E4.86866
G1 X100.605 Y103.818 E4.90956
G1 X101.192 Y103.988 E4.95040
G1 X101.736 Y104.265 E4.99113
G1 X102.207 Y104.631 E5.03098
G1 X102.494 Y104.936 E5.05902
G1 X102.741 Y105.276 E5.08706
G1 X103.012 Y105.808 E5.12691
G1 X103.182 Y106.393 E5.16764
G1 X103.239 Y107.000 E5.20837
G1 X103.182 Y107.607 E5.24910
G1 X103.012 Y108.192 E5.28983
G1 X102.741 Y108.724 E5.32968
G1 X102.530 Y109.015 E5.35371
G1 X102.081 Y108.721 F7800.000
G1 F900
G1 X101.845 Y108.972 E5.37669
G1 X101.447 Y109.281 E5.41033
G1 X100.994 Y109.512 E5.44430
G1 X100.506 Y109.653 E5.47827
G1 X100.005 Y109.701 E5.51192
G1 X99.662 Y109.679 E5.53489
G1 X99.324 Y109.615 E5.55786
G1 X98.850 Y109.444 E5.59151
G1 X98.412 Y109.185 E5.62548
G1 X98.031 Y108.849 E5.65944
G1 X97.719 Y108.447 E5.69341
G1 X97.488 Y107.994 E5.72738
G1 X97.347 Y107.506 E5.76134
G1 X97.299 Y107.000 E5.79531
G1 X97.347 Y106.494 E5.82928
G1 X97.488 Y106.006 E5.86324
G1 X97.719 Y105.553 E5.89721
G1 X98.031 Y105.151 E5.93117
G1 X98.412 Y104.815 E5.96514
G1 X98.850 Y104.556 E5.99911
G1 X99.324 Y104.385 E6.03276
G1 X99.661 Y104.321 E6.05571
G1 X99.989 Y104.300 E6.07764
G1 X100.506 Y104.346 E6.11230
G1 X100.994 Y104.488 E6.14631
G1 X101.447 Y104.719 E6.18028
G1 X101.845 Y105.028 E6.21393
G1 X102.081 Y105.279 E6.23690
G1 X102.283 Y105.557 E6.25987
G1 X102.512 Y106.006 E6.29352
G1 X102.653 Y106.494 E6.32749
G1 X102.701 Y107.000 E6.36145
G1 X102.653 Y107.506 E6.39542
G1 X102.512 Y107.994 E6.42939
G1 X102.283 Y108.443 E6.46303
G1 X102.116 Y108.673 E6.48200
G1 X102.081 Y108.721 F7800.000
G1 X102.948 Y109.351 F7800.000
G1 F900
G1 X103.199 Y109.005 E6.51060
G1 X103.512 Y108.391 E6.55664
G1 X103.710 Y107.708 E6.60414
G1 X103.777 Y107.000 E6.65163
G1 X103.710 Y106.292 E6.69913
G1 X103.512 Y105.609 E6.74663
G1 X103.199 Y104.995 E6.79267
G1 X102.908 Y104.594 E6.82578
G1 X102.569 Y104.233 E6.85889
G1 X102.024 Y103.811 E6.90493
G1 X101.391 Y103.488 E6.95243
G1 X100.705 Y103.289 E7.00011
G1 X100.003 Y103.225 E7.04723
G1 X99.526 Y103.256 E7.07915
G1 X99.040 Y103.349 E7.11218
G1 X98.392 Y103.582 E7.15823
G1 X97.780 Y103.944 E7.20572
G1 X97.246 Y104.414 E7.25322
G1 X96.811 Y104.976 E7.30071
G1 X96.488 Y105.609 E7.34821
G1 X96.290 Y106.292 E7.39571
G1 X96.223 Y107.000 E7.44320
G1 X96.290 Y107.708 E7.49070
G1 X96.488 Y108.391 E7.53819
G1 X96.811 Y109.024 E7.58569
G1 X97.070 Y109.358 E7.61394
G1 X96.870 Y109.559 E7.63287
G1 X96.490 Y109.238 E7.66608
G1 X96.049 Y108.769 E7.70909
G1 X95.670 Y108.248 E7.75212
G1 X95.361 Y107.685 E7.79501
G1 X95.123 Y107.085 E7.83816
G1 X94.963 Y106.461 E7.88118
G1 X94.912 Y106.143 E7.90270
G1 X94.871 Y105.478 E7.94716
G1 X94.871 Y99.571 E8.34180
G1 X95.727 Y99.571 E8.39894
G1 X96.002 Y99.742 E8.42058
G1 X96.478 Y99.985 E8.45628
G1 X96.955 Y100.191 E8.49100
G1 X97.444 Y100.367 E8.52571
G1 X97.943 Y100.512 E8.56043
G1 X98.450 Y100.625 E8.59514
G1 X98.963 Y100.707 E8.62986
G1 X99.481 Y100.756 E8.66458
G1 X100.000 Y100.772 E8.69929
G1 X100.535 Y100.755 E8.73505
G1 X101.038 Y100.706 E8.76882
G1 X101.550 Y100.625 E8.80344
G1 X102.057 Y100.512 E8.83816
G1 X102.556 Y100.367 E8.87287
G1 X103.045 Y100.191 E8.90759
G1 X103.522 Y99.985 E8.94230
G1 X103.985 Y99.749 E8.97702
G1 X104.432 Y99.484 E9.01173
G1 X104.862 Y99.192 E9.04645
G1 X105.129 Y98.985 E9.06900
G1 X105.129 Y105.478 E9.50277
G1 X105.118 Y105.822 E9.52574
G1 X105.037 Y106.461 E9.56876
G1 X104.877 Y107.085 E9.61178
G1 X104.640 Y107.683 E9.65480
G1 X104.494 Y107.970 E9.67632
G1 X104.149 Y108.514 E9.71935
G1 X103.738 Y109.010 E9.76237
G1 X103.510 Y109.238 E9.78388
G1 X103.148 Y109.545 E9.81562
G1 X102.991 Y109.393 E9.83024
G1 E5.83024 F2400.00000
G92 E0
G1 X105.664 Y97.771 F7800.000
G1 E4.00000 F2400.00000
G1 F900
G1 X105.664 Y105.487 E4.51549
G1 X105.619 Y106.210 E4.56388
G1 X105.486 Y106.909 E4.61140
G1 X105.266 Y107.585 E4.65892
G1 X104.963 Y108.229 E4.70644
G1 X104.582 Y108.829 E4.75396
G1 X104.364 Y109.110 E4.77773
G1 X103.877 Y109.629 E4.82524
G1 X103.329 Y110.082 E4.87276
G1 X103.035 Y110.282 E4.89653
G1 X102.412 Y110.625 E4.94405
G1 X102.085 Y110.766 E4.96782
G1 X101.750 Y110.887 E4.99159
G1 X101.061 Y111.064 E5.03910
G1 X100.356 Y111.153 E5.08663
G1 X100.000 Y111.164 E5.11040
G1 X99.644 Y111.153 E5.13416
G1 X98.939 Y111.064 E5.18169
G1 X98.250 Y110.887 E5.22920
G1 X97.588 Y110.625 E5.27672
G1 X97.271 Y110.463 E5.30049
G1 X96.671 Y110.082 E5.34801
G1 X96.123 Y109.629 E5.39553
G1 X95.871 Y109.377 E5.41930
G1 X95.636 Y109.110 E5.44306
G1 X95.218 Y108.535 E5.49059
G1 X94.876 Y107.913 E5.53803
G1 X94.728 Y107.569 E5.56304
G1 X94.514 Y106.909 E5.60939
G1 X94.436 Y106.561 E5.63316
G1 X94.347 Y105.856 E5.68068
G1 X94.336 Y105.487 E5.70533
G1 X94.336 Y99.036 E6.13631
G1 X95.879 Y99.036 E6.23944
G1 X96.265 Y99.275 E6.26977
G1 X96.706 Y99.500 E6.30284
G1 X97.152 Y99.693 E6.33530
G1 X97.609 Y99.857 E6.36777
G1 X98.076 Y99.993 E6.40024
G1 X98.550 Y100.099 E6.43270
G1 X99.030 Y100.175 E6.46517
G1 X99.514 Y100.221 E6.49764
G1 X100.000 Y100.236 E6.53010
G1 X100.501 Y100.220 E6.56357
G1 X100.970 Y100.175 E6.59510
G1 X101.450 Y100.099 E6.62751
G1 X101.924 Y99.993 E6.65997
G1 X102.391 Y99.857 E6.69244
G1 X102.848 Y99.693 E6.72491
G1 X103.294 Y99.500 E6.75737
G1 X103.727 Y99.279 E6.78984
G1 X104.145 Y99.032 E6.82231
G1 X104.547 Y98.759 E6.85477
G1 X104.931 Y98.461 E6.88724
G1 X105.296 Y98.139 E6.91971
G1 X105.622 Y97.813 E6.95053
G1 X106.200 Y96.584 F7800.000
G1 F900
G1 X106.188 Y105.889 E7.57217
G1 X106.090 Y106.662 E7.62419
G1 X105.896 Y107.416 E7.67620
G1 X105.764 Y107.782 E7.70222
G1 X105.433 Y108.487 E7.75423
G1 X105.016 Y109.144 E7.80625
G1 X104.777 Y109.452 E7.83227
G1 X104.244 Y110.019 E7.88428
G1 X103.644 Y110.516 E7.93629
G1 X103.322 Y110.735 E7.96231
G1 X102.640 Y111.110 E8.01433
G1 X102.282 Y111.264 E8.04035
G1 X101.916 Y111.396 E8.06637
G1 X101.162 Y111.590 E8.11838
G1 X100.389 Y111.688 E8.17040
G1 X100.000 Y111.700 E8.19641
G1 X99.611 Y111.688 E8.22243
G1 X98.838 Y111.590 E8.27445
G1 X98.084 Y111.396 E8.32646
G1 X97.360 Y111.110 E8.37848
G1 X97.013 Y110.933 E8.40449
G1 X96.356 Y110.516 E8.45651
G1 X95.756 Y110.019 E8.50852
G1 X95.480 Y109.744 E8.53454
G1 X95.223 Y109.452 E8.56056
G1 X94.765 Y108.822 E8.61258
G1 X94.390 Y108.140 E8.66456
G1 X94.229 Y107.765 E8.69182
G1 X93.995 Y107.042 E8.74262
G1 X93.910 Y106.662 E8.76864
G1 X93.812 Y105.889 E8.82065
G1 X93.800 Y105.495 E8.84699
G1 X93.800 Y98.500 E9.31431
G1 X96.032 Y98.500 E9.46343
G1 X96.528 Y98.808 E9.50245
G1 X96.934 Y99.015 E9.53289
G1 X97.349 Y99.195 E9.56310
G1 X97.775 Y99.348 E9.59332
G1 X98.209 Y99.474 E9.62354
G1 X98.651 Y99.573 E9.65376
G1 X99.098 Y99.643 E9.68398
G1 X99.548 Y99.686 E9.71419
G1 X100.000 Y99.700 E9.74441
G1 X100.467 Y99.685 E9.77559
G1 X100.903 Y99.643 E9.80487
G1 X101.349 Y99.573 E9.83507
G1 X101.791 Y99.474 E9.86528
G1 X102.225 Y99.348 E9.89550
G1 X102.651 Y99.195 E9.92572
G1 X103.066 Y99.015 E9.95594
G1 X103.469 Y98.810 E9.98615
G1 X103.858 Y98.579 E10.01637
G1 X104.232 Y98.325 E10.04659
G1 X104.590 Y98.048 E10.07681
G1 X104.929 Y97.749 E10.10703
G1 X105.249 Y97.429 E10.13724
G1 X105.548 Y97.090 E10.16746
G1 X105.973 Y96.514 E10.21526
G1 X106.143 Y96.566 E10.22711
G1 X106.045 Y96.953 F7800.000
G1 X106.197 Y96.269 F7800.000
G1 F900
G1 X106.420 Y95.217 E10.25489
G1 F900
G1 X106.446 Y95.081 E10.25684
G1 X106.477 Y95.088 F7800.000
G1 F900
G1 X106.171 Y96.261 E10.32594
G1 E6.32594 F2400.00000
G92 E0
G1 X104.703 Y105.879 F7800.000
G1 E4.00000 F2400.00000
G1 F900
G1 X104.400 Y106.182 E4.02997
G1 X103.943 Y105.846 F7800.000
G1 F900
G1 X104.745 Y105.045 E4.10926
G1 X104.745 Y104.252 E4.16473
G1 X103.717 Y105.280 E4.26643
G1 X103.506 Y104.866 E4.29890
G1 X103.435 Y104.768 E4.30735
G1 X104.745 Y103.459 E4.43692
G1 X104.745 Y102.666 E4.49239
G1 X103.091 Y104.319 E4.65600
G1 X102.779 Y103.987 E4.68788
G1 X102.695 Y103.922 E4.69530
G1 X104.745 Y101.872 E4.89806
G1 X104.745 Y101.079 E4.95353
G1 X102.248 Y103.576 E5.20048
G1 X102.161 Y103.508 E5.20822
G1 X101.738 Y103.293 E5.24139
G1 X104.745 Y100.286 E5.53878
G1 X104.745 Y99.860 E5.56860
G1 X104.395 Y100.067 E5.59704
G1 X103.939 Y100.299 E5.63284
G1 X101.175 Y103.063 E5.90624
G1 X100.653 Y102.912 E5.94422
G1 X100.543 Y102.902 E5.95196
G1 X102.657 Y100.788 E6.16101
G1 X102.342 Y100.880 E6.18393
G1 X101.623 Y101.029 E6.23528
G1 X99.809 Y102.843 E6.41473
G1 X99.307 Y102.875 E6.44993
G1 X98.907 Y102.951 E6.47838
G1 X100.720 Y101.138 E6.65772
G1 X99.917 Y101.149 E6.71393
G1 X97.540 Y103.526 E6.94902
G1 X97.312 Y103.660 E6.96754
G1 X96.703 Y104.197 E7.02435
G1 X96.183 Y104.883 E7.08452
G1 X95.261 Y105.804 E7.17569
G1 X95.255 Y105.017 E7.23077
G1 X99.174 Y101.099 E7.61836
G1 X98.483 Y100.996 E7.66719
G1 X95.255 Y104.224 E7.98647
G1 X95.255 Y103.431 E8.04194
G1 X97.841 Y100.845 E8.29775
G1 X97.237 Y100.656 E8.34203
G1 X95.255 Y102.638 E8.53807
G1 X95.255 Y101.845 E8.59355
G1 X96.667 Y100.433 E8.73319
G1 X96.128 Y100.179 E8.77486
G1 X95.255 Y101.052 E8.86120
G1 X95.255 Y100.258 E8.91667
G1 X95.558 Y99.955 E8.94666
G1 E4.94666 F2400.00000
G92 E0
G1 X95.628 Y106.552 F7800.000
G1 E4.00000 F2400.00000
G1 F900
G1 X95.679 Y107.026 E4.03277
G1 F900
G1 X95.752 Y107.332 E4.05185
G1 F900
G1 X95.819 Y107.578 E4.06455
G1 F900
G1 X95.874 Y107.768 E4.07228
G1 F900
G1 X95.991 Y108.044 E4.08120
G1 F900
G1 X96.121 Y108.319 E4.08727
G1 F900
G1 X96.207 Y108.488 E4.08882
G1 X97.157 Y109.650 F7800.000
G1 F900
G1 X97.649 Y110.002 E4.13346
G1 F900
G1 X98.115 Y110.262 E4.16838
G1 F900
G1 X98.381 Y110.387 E4.18512
G1 F900
G1 X99.029 Y110.590 E4.21941
G1 F900
G1 X99.548 Y110.676 E4.24074
G1 X100.036 Y110.700 E4.26053
G1 F900
G1 X100.651 Y110.651 E4.28942
G1 X100.970 Y110.584 E4.30469
G1 F900
G1 X101.356 Y110.483 E4.32653
G1 X101.590 Y110.393 E4.34025
G1 F900
G1 X102.052 Y110.184 E4.37162
G1 F900
G1 X102.306 Y110.027 E4.39252
G1 F900
G1 X102.585 Y109.844 E4.41802
G1 X102.586 Y109.824 E4.41957
G1 F900
G1 X102.594 Y109.381 E4.44897
G1 X103.793 Y108.488 F7800.000
G1 F900
G1 X103.879 Y108.319 E4.45052
G1 F900
G1 X104.009 Y108.044 E4.45659
G1 F900
G1 X104.126 Y107.768 E4.46551
G1 F900
G1 X104.182 Y107.577 E4.47332
G1 F900
G1 X104.246 Y107.338 E4.48555
G1 F900
G1 X104.321 Y107.026 E4.50505
G1 F900
G1 X104.372 Y106.552 E4.53782
G1 Z0.300 F7800.000
G1 E0.53782 F2400.00000
G92 E0
G1 X101.071 Y106.538 F7800.000
G1 E4.00000 F2400.00000
G1 F900
G1 X101.071 Y105.991 E4.03655
G1 X101.243 Y106.211 E4.05520
G1 X101.368 Y106.458 E4.07371
G1 X101.446 Y106.724 E4.09221
G1 X101.472 Y107.000 E4.11072
G1 X101.446 Y107.276 E4.12922
G1 X101.368 Y107.542 E4.14773
G1 X101.243 Y107.789 E4.16623
G1 X101.071 Y108.009 E4.18489
G1 F900
G1 X101.071 Y107.462 E4.22143
G1 X100.899 Y107.744 E4.24350
G1 X100.744 Y107.899 E4.25817
G1 X100.625 Y107.986 E4.26797
G1 X100.361 Y108.110 E4.28751
G1 X100.219 Y108.147 E4.29730
G1 X100.000 Y108.167 E4.31198
G1 X100.000 Y108.472 E4.33232
G1 X99.634 Y108.425 E4.35697
G1 X99.291 Y108.290 E4.38161
G1 X99.135 Y108.191 E4.39396
G1 X98.929 Y108.009 E4.41232
G1 X98.929 Y107.462 E4.44886
G1 F900
G1 X98.853 Y107.219 E4.46588
G1 X98.833 Y107.000 E4.48055
G1 X98.853 Y106.781 E4.49523
G1 X98.929 Y106.538 E4.51224
G1 X98.929 Y105.991 E4.54879
G1 X99.135 Y105.809 E4.56714
G1 X99.373 Y105.668 E4.58565
G1 X99.545 Y105.600 E4.59800
G1 X99.816 Y105.540 E4.61650
G1 X100.000 Y105.528 E4.62885
G1 X100.000 Y105.833 E4.64919
G1 E0.64919 F2400.00000
G92 E0
G1 X104.285 Y111.565 F7800.000
G1 E4.00000 F2400.00000
G1 F900
G1 X104.285 Y111.822 E4.01719
G1 X104.448 Y111.822 E4.02807
G1 X104.929 Y111.458 E4.06838
G1 X105.356 Y111.074 E4.10675
G1 X105.356 Y110.644 E4.13551
G1 X105.724 Y110.235 E4.17223
G1 X106.010 Y109.866 E4.20341
G1 X106.427 Y109.217 E4.25497
G1 X106.427 Y109.793 E4.29342
G1 E0.29342 F2400.00000
G92 E0
G1 X101.071 Y113.156 F7800.000
G1 E4.00000 F2400.00000
G1 F900
G1 X101.071 Y113.018 E4.00920
G1 X100.000 Y113.018 E4.08077
G1 X100.000 Y113.233 E4.09513
G1 X99.514 Y113.218 E4.12759
G1 X98.929 Y113.156 E4.16693
G1 X98.929 Y113.018 E4.17614
G1 E0.17614 F2400.00000
G92 E0
G1 X96.786 Y112.971 F7800.000
G1 E4.00000 F2400.00000
G1 F900
G1 X97.029 Y113.185 E4.02162
G1 X97.029 Y112.685 E4.05498
G1 X97.542 Y112.835 E4.09068
G1 X97.542 Y112.506 E4.11261
G1 X96.983 Y112.305 E4.15232
G1 X96.983 Y112.284 E4.15369
G1 X96.786 Y112.195 E4.16811
G1 X96.786 Y112.971 E4.21992
G1 X95.715 Y111.822 F7800.000
G1 F900
G1 X95.715 Y111.620 E4.23339
G1 X94.915 Y110.915 E4.30465
G1 X94.644 Y110.644 E4.33027
G1 X94.644 Y111.074 E4.35903
G1 X94.363 Y110.794 E4.38554
G1 X94.042 Y110.429 E4.41801
G1 X93.573 Y109.793 E4.47082
G1 X93.573 Y109.217 E4.50927
G1 X93.279 Y108.663 E4.55119
G1 X93.093 Y108.235 E4.58237
G1 X92.935 Y107.795 E4.61354
G1 X92.805 Y107.347 E4.64472
G1 X92.711 Y106.926 E4.67354
G1 X92.630 Y106.431 E4.70707
G1 X92.539 Y105.468 E4.77170
G1 X92.572 Y105.468 E4.77390
G1 X92.572 Y103.238 E4.92288
G1 X92.501 Y103.238 E4.92761
G1 X92.501 Y107.384 E5.20457
G1 X92.404 Y106.949 E5.23432
G1 X92.328 Y106.469 E5.26677
G1 X92.282 Y105.986 E5.29923
G1 X92.268 Y103.238 E5.48280
