; generated by Slic3r 1.3.0-dev on 2018-08-27 at 12:37:26

; external perimeters extrusion width = 0.44mm (1.05mm^3/s)
; perimeters extrusion width = 0.56mm (2.69mm^3/s)
; infill extrusion width = 0.50mm (3.35mm^3/s)
; solid infill extrusion width = 0.56mm (1.08mm^3/s)
; top infill extrusion width = 0.56mm (0.81mm^3/s)

M107
M190 S50 ; set bed temperature and wait for it to be reached
M104 S205 ; set temperature
G28 ; home all axes
G1 Z5 F5000 ; lift nozzle

; Filament gcode

M109 S205 ; set temperature and wait for it to be reached
G21 ; set units to millimeters
G90 ; use absolute coordinates
M82 ; use absolute distances for extrusion
G92 E0
G1 Z0.300 F7800.000
G1 E-4.00000 F2400.00000
G92 E0
G1 X72.058 Y81.131 F7800.000
G1 E4.00000 F2400.00000
G1 F900
G1 X72.515 Y80.767 E4.03897
G1 X72.935 Y80.475 E4.07318
G1 X73.310 Y80.245 E4.10256
G1 X73.867 Y79.949 E4.14469
G1 X74.376 Y79.722 E4.18192
G1 X74.912 Y79.526 E4.22003
G1 X75.385 Y79.387 E4.25298
G1 X75.961 Y79.257 E4.29247
G1 X76.641 Y79.157 E4.33838
G1 X77.449 Y79.112 E4.39241
G1 X122.567 Y79.113 E7.40653
G1 X123.171 Y79.139 E7.44695
G1 X123.635 Y79.191 E7.47815
G1 X124.217 Y79.293 E7.51758
G1 X124.867 Y79.458 E7.56235
G1 X125.667 Y79.741 E7.61909
G1 X126.136 Y79.950 E7.65337
G1 X126.677 Y80.238 E7.69432
G1 X127.375 Y80.688 E7.74980
G1 X127.842 Y81.048 E7.78922
G1 X128.262 Y81.419 E7.82664
G1 X128.676 Y81.837 E7.86593
G1 X129.080 Y82.304 E7.90717
G1 X129.588 Y83.002 E7.96486
G1 X129.890 Y83.496 E8.00351
G1 X130.146 Y83.980 E8.04012
G1 X130.376 Y84.485 E8.07723
G1 X130.554 Y84.950 E8.11048
G1 X130.751 Y85.576 E8.15431
G1 X130.860 Y86.014 E8.18449
G1 X130.959 Y86.512 E8.21834
G1 X131.047 Y87.161 E8.26212
G1 X131.096 Y88.098 E8.32480
G1 X131.086 Y109.661 E9.76535
G1 X131.052 Y110.240 E9.80406
G1 X130.926 Y111.090 E9.86151
G1 X130.853 Y111.435 E9.88502
G1 X130.546 Y112.488 E9.95833
G1 X130.072 Y113.550 E10.03599
G1 X129.975 Y113.727 E10.04953
G1 X129.344 Y114.684 E10.12608
G1 X127.532 Y116.349 E10.29049
G1 X127.380 Y116.445 E10.30248
G1 X124.786 Y117.451 E10.48838
G1 X124.534 Y117.492 E10.50541
G1 X123.501 Y117.568 E10.57462
G1 X76.499 Y117.568 E13.71460
G1 X75.466 Y117.492 E13.78377
G1 X75.214 Y117.451 E13.80084
G1 X72.620 Y116.445 E13.98671
G1 X72.468 Y116.349 E13.99873
G1 X70.656 Y114.684 E14.16314
G1 X70.025 Y113.727 E14.23967
G1 X69.928 Y113.550 E14.25320
G1 X69.454 Y112.488 E14.33087
G1 X69.147 Y111.435 E14.40418
G1 X69.074 Y111.091 E14.42765
G1 X68.948 Y110.239 E14.48518
G1 X68.904 Y109.298 E14.54810
G1 X68.904 Y88.117 E15.96312
G1 X68.916 Y87.623 E15.99616
G1 X68.954 Y87.139 E16.02854
G1 X69.074 Y86.330 E16.08318
G1 X69.292 Y85.432 E16.14494
G1 X69.441 Y84.969 E16.17741
G1 X69.644 Y84.442 E16.21517
G1 X69.914 Y83.858 E16.25814
G1 X70.325 Y83.136 E16.31366
G1 X70.751 Y82.520 E16.36366
G1 X71.073 Y82.117 E16.39813
G1 X71.373 Y81.782 E16.42821
G1 X72.014 Y81.170 E16.48734
G1 X72.404 Y81.540 F7800.000
G1 F900
G1 X72.836 Y81.196 E16.52424
G1 X73.576 Y80.709 E16.58343
G1 X74.103 Y80.429 E16.62327
G1 X74.580 Y80.218 E16.65813
G1 X75.081 Y80.034 E16.69380
G1 X75.518 Y79.905 E16.72424
G1 X76.058 Y79.784 E16.76120
G1 X76.700 Y79.690 E16.80453
G1 X77.449 Y79.648 E16.85467
G1 X122.566 Y79.649 E19.86874
G1 X123.125 Y79.673 E19.90610
G1 X123.566 Y79.722 E19.93571
G1 X124.104 Y79.817 E19.97226
G1 X124.711 Y79.970 E20.01408
G1 X125.466 Y80.237 E20.06758
G1 X125.901 Y80.432 E20.09941
G1 X126.407 Y80.700 E20.13765
G1 X126.900 Y81.009 E20.17651
G1 X127.381 Y81.364 E20.21646
G1 X128.027 Y81.937 E20.27415
G1 X128.407 Y82.337 E20.31100
G1 X128.706 Y82.694 E20.34209
G1 X128.996 Y83.084 E20.37458
G1 X129.291 Y83.535 E20.41063
G1 X129.550 Y83.990 E20.44554
G1 X129.774 Y84.446 E20.47947
G1 X129.963 Y84.894 E20.51200
G1 X130.109 Y85.303 E20.54103
G1 X130.347 Y86.174 E20.60132
G1 X130.455 Y86.750 E20.64048
G1 X130.515 Y87.216 E20.67187
G1 X130.560 Y88.098 E20.73087
G1 X130.551 Y109.633 E22.16953
G1 X130.518 Y110.193 E22.20702
G1 X130.402 Y110.980 E22.26013
G1 X130.329 Y111.324 E22.28363
G1 X130.041 Y112.311 E22.35231
G1 X129.603 Y113.292 E22.42409
G1 X129.505 Y113.470 E22.43763
G1 X128.919 Y114.359 E22.50878
G1 X127.243 Y115.897 E22.66073
G1 X127.092 Y115.994 E22.67272
G1 X124.694 Y116.923 E22.84454
G1 X124.456 Y116.962 E22.86068
G1 X123.501 Y117.032 E22.92464
G1 X76.499 Y117.032 E26.06461
G1 X75.545 Y116.962 E26.12855
G1 X75.306 Y116.923 E26.14471
G1 X72.908 Y115.994 E26.31651
G1 X72.756 Y115.897 E26.32852
G1 X71.081 Y114.358 E26.48048
G1 X70.495 Y113.470 E26.55162
G1 X70.397 Y113.292 E26.56515
G1 X69.959 Y112.311 E26.63694
G1 X69.671 Y111.324 E26.70561
G1 X69.599 Y110.980 E26.72908
G1 X69.482 Y110.193 E26.78225
G1 X69.440 Y109.298 E26.84212
G1 X69.440 Y88.117 E28.25709
G1 X69.486 Y87.199 E28.31852
G1 X69.599 Y86.437 E28.37001
G1 X69.807 Y85.578 E28.42904
G1 X69.945 Y85.150 E28.45905
G1 X70.136 Y84.653 E28.49465
G1 X70.391 Y84.101 E28.53528
G1 X70.780 Y83.418 E28.58774
G1 X71.182 Y82.839 E28.63485
G1 X71.479 Y82.466 E28.66671
G1 X71.761 Y82.151 E28.69495
G1 X72.359 Y81.580 E28.75018
G1 E24.75018 F2400.00000
G92 E0
G1 X121.017 Y96.943 F7800.000
G1 E4.00000 F2400.00000
G1 F900
G1 X120.674 Y97.050 E4.02397
G1 X120.078 Y97.133 E4.06417
G1 X119.479 Y97.083 E4.10437
G1 X119.131 Y96.995 E4.12835
G1 X118.580 Y96.753 E4.16855
G1 X118.076 Y96.383 E4.21030
G1 X117.681 Y95.929 E4.25050
G1 X117.493 Y95.624 E4.27447
G1 X117.266 Y95.066 E4.31467
G1 X117.164 Y94.450 E4.35643
G1 X117.198 Y93.826 E4.39815
G1 X117.358 Y93.258 E4.43755
G1 X117.514 Y92.924 E4.46222
G1 X117.858 Y92.428 E4.50255
G1 X118.318 Y92.004 E4.54431
G1 X118.859 Y91.692 E4.58606
G1 X119.455 Y91.505 E4.62778
G1 X120.043 Y91.456 E4.66718
G1 X120.411 Y91.485 E4.69185
G1 X120.996 Y91.633 E4.73218
G1 X121.554 Y91.915 E4.77394
G1 X122.036 Y92.312 E4.81569
G1 X122.406 Y92.787 E4.85589
G1 X122.577 Y93.103 E4.87986
G1 X122.772 Y93.672 E4.92007
G1 X122.841 Y94.293 E4.96182
G1 X122.772 Y94.914 E5.00354
G1 X122.581 Y95.472 E5.04294
G1 X122.407 Y95.798 E5.06761
G1 X122.036 Y96.274 E5.10794
G1 X121.554 Y96.671 E5.14970
G1 X121.070 Y96.916 E5.18589
G1 X120.815 Y96.445 F7800.000
G1 F900
G1 X120.557 Y96.526 E5.20393
G1 X120.063 Y96.594 E5.23721
G1 X119.567 Y96.553 E5.27048
G1 X119.305 Y96.487 E5.28853
G1 X118.849 Y96.287 E5.32180
G1 X118.441 Y95.987 E5.35563
G1 X118.114 Y95.611 E5.38891
G1 X117.972 Y95.381 E5.40695
G1 X117.785 Y94.920 E5.44023
G1 X117.702 Y94.420 E5.47406
G1 X117.730 Y93.915 E5.50788
G1 X117.862 Y93.445 E5.54045
G1 X117.980 Y93.191 E5.55916
G1 X118.264 Y92.782 E5.59248
G1 X118.637 Y92.439 E5.62632
G1 X119.075 Y92.185 E5.66015
G1 X119.559 Y92.034 E5.69397
G1 X120.044 Y91.993 E5.72654
G1 X120.324 Y92.015 E5.74525
G1 X120.807 Y92.138 E5.77857
G1 X121.259 Y92.366 E5.81240
G1 X121.650 Y92.688 E5.84624
G1 X121.956 Y93.081 E5.87951
G1 X122.084 Y93.319 E5.89756
G1 X122.246 Y93.790 E5.93083
G1 X122.302 Y94.293 E5.96466
G1 X122.246 Y94.796 E5.99848
G1 X122.088 Y95.258 E6.03105
G1 X121.956 Y95.505 E6.04976
G1 X121.650 Y95.898 E6.08309
G1 X121.259 Y96.220 E6.11692
G1 X120.868 Y96.418 E6.14619
G1 X120.815 Y96.445 F7800.000
G1 E2.14619 F2400.00000
G92 E0
G1 X114.371 Y98.165 F7800.000
G1 E4.00000 F2400.00000
G1 F900
G1 X105.629 Y98.165 E4.58404
G1 X105.629 Y90.422 E5.10128
G1 X114.371 Y90.422 E5.68533
G1 X114.371 Y98.105 E6.19856
G1 X113.836 Y97.629 F7800.000
G1 F900
G1 X106.164 Y97.629 E6.71104
G1 X106.164 Y90.958 E7.15671
G1 X113.836 Y90.958 E7.66919
G1 X113.836 Y97.569 E8.11086
G1 X113.300 Y97.093 F7800.000
G1 F900
G1 X106.700 Y97.093 E8.55178
G1 X106.700 Y91.493 E8.92589
G1 X113.300 Y91.493 E9.36680
G1 X113.300 Y97.033 E9.73690
G1 X113.414 Y97.477 F7800.000
G1 E5.73690 F2400.00000
G92 E0
G1 X114.000 Y97.793 F7800.000
G1 X114.000 Y100.544 F7800.000
G1 X106.000 Y100.546 F7800.000
G1 X106.000 Y97.793 F7800.000
G1 X103.827 Y97.793 F7800.000
G1 X104.216 Y96.556 F7800.000
G1 X102.746 Y95.544 F7800.000
G1 X103.298 Y95.031 F7800.000
G1 E4.00000 F2400.00000
G1 F900
G1 X103.074 Y95.687 E4.04625
G1 X102.858 Y96.091 E4.07687
G1 X102.422 Y96.650 E4.12421
G1 X101.848 Y97.123 E4.17388
G1 X101.185 Y97.458 E4.22356
G1 X100.501 Y97.632 E4.27069
G1 X100.055 Y97.668 E4.30059
G1 X99.352 Y97.610 E4.34771
G1 X98.642 Y97.388 E4.39739
G1 X98.032 Y97.036 E4.44451
G1 X97.715 Y96.775 E4.47188
G1 X97.430 Y96.482 E4.49925
G1 X97.028 Y95.902 E4.54637
G1 X96.748 Y95.213 E4.59605
G1 X96.626 Y94.479 E4.64572
G1 X96.666 Y93.737 E4.69540
G1 X96.858 Y93.058 E4.74252
G1 X97.049 Y92.653 E4.77242
G1 X97.451 Y92.074 E4.81955
G1 X97.998 Y91.570 E4.86922
G1 X98.642 Y91.198 E4.91890
G1 X99.351 Y90.977 E4.96851
G1 X100.041 Y90.919 E5.01476
G1 X100.460 Y90.951 E5.04284
G1 X100.871 Y91.032 E5.07080
G1 X101.230 Y91.151 E5.09610
G1 X101.848 Y91.464 E5.14239
G1 X102.393 Y91.912 E5.18952
G1 X102.687 Y92.250 E5.21942
G1 X103.056 Y92.851 E5.26655
G1 X103.298 Y93.554 E5.31622
G1 X103.380 Y94.293 E5.36589
G1 X103.305 Y94.972 E5.41150
G1 X102.772 Y94.914 F7800.000
G1 F900
G1 X102.581 Y95.472 E5.45091
G1 X102.407 Y95.798 E5.47557
G1 X102.036 Y96.274 E5.51591
G1 X101.554 Y96.671 E5.55766
G1 X100.996 Y96.954 E5.59942
G1 X100.413 Y97.101 E5.63962
G1 X100.055 Y97.131 E5.66359
G1 X99.455 Y97.081 E5.70379
G1 X98.859 Y96.895 E5.74554
G1 X98.338 Y96.594 E5.78574
G1 X98.079 Y96.380 E5.80817
G1 X97.845 Y96.140 E5.83060
G1 X97.502 Y95.645 E5.87080
G1 X97.266 Y95.066 E5.91255
G1 X97.164 Y94.450 E5.95430
G1 X97.198 Y93.826 E5.99606
G1 X97.362 Y93.247 E6.03626
G1 X97.515 Y92.922 E6.06023
G1 X97.858 Y92.428 E6.10043
G1 X98.318 Y92.004 E6.14219
G1 X98.859 Y91.692 E6.18394
G1 X99.455 Y91.505 E6.22566
G1 X100.043 Y91.456 E6.26506
G1 X100.388 Y91.483 E6.28818
G1 X100.734 Y91.551 E6.31179
G1 X101.024 Y91.647 E6.33214
G1 X101.554 Y91.915 E6.37184
G1 X102.018 Y92.298 E6.41204
G1 X102.254 Y92.568 E6.43601
G1 X102.569 Y93.081 E6.47621
G1 X102.772 Y93.672 E6.51796
G1 X102.841 Y94.293 E6.55972
G1 X102.779 Y94.854 E6.59743
G1 X102.246 Y94.796 F7800.000
G1 F900
G1 X102.088 Y95.258 E6.62999
G1 X101.956 Y95.505 E6.64871
G1 X101.650 Y95.898 E6.68203
G1 X101.259 Y96.220 E6.71586
G1 X100.807 Y96.449 E6.74970
G1 X100.324 Y96.571 E6.78297
G1 X100.055 Y96.594 E6.80101
G1 X99.559 Y96.552 E6.83429
G1 X99.075 Y96.401 E6.86812
G1 X98.644 Y96.152 E6.90140
G1 X98.442 Y95.986 E6.91888
G1 X98.259 Y95.798 E6.93637
G1 X97.976 Y95.389 E6.96965
G1 X97.785 Y94.920 E7.00348
G1 X97.702 Y94.420 E7.03731
G1 X97.730 Y93.914 E7.07115
G1 X97.865 Y93.435 E7.10442
G1 X97.980 Y93.191 E7.12246
G1 X98.264 Y92.782 E7.15574
G1 X98.637 Y92.439 E7.18957
G1 X99.075 Y92.185 E7.22340
G1 X99.559 Y92.034 E7.25722
G1 X100.044 Y91.993 E7.28979
G1 X100.315 Y92.015 E7.30795
G1 X100.598 Y92.070 E7.32719
G1 X100.817 Y92.143 E7.34261
G1 X101.259 Y92.366 E7.37571
G1 X101.643 Y92.683 E7.40898
G1 X101.821 Y92.887 E7.42702
G1 X102.082 Y93.311 E7.46030
G1 X102.246 Y93.790 E7.49413
G1 X102.302 Y94.293 E7.52796
G1 X102.253 Y94.737 E7.55778
G1 X102.246 Y94.796 F7800.000
G1 E3.55778 F2400.00000
G92 E0
G1 X103.018 Y94.320 F7800.000
G1 X104.491 Y94.648 F7800.000
G1 X104.216 Y96.556 F7800.000
G1 X103.219 Y99.844 F7800.000
G1 X100.663 Y100.276 F7800.000
G1 X98.649 Y100.220 F7800.000
G1 X97.427 Y100.015 F7800.000
G1 X96.788 Y99.843 F7800.000
G1 X96.186 Y97.793 F7800.000
G1 X94.000 Y97.793 F7800.000
G1 X94.371 Y98.165 F7800.000
G1 E4.00000 F2400.00000
G1 F900
G1 X79.129 Y98.165 E5.01828
G1 X79.129 Y90.422 E5.53552
G1 X94.371 Y90.422 E6.55380
G1 X94.371 Y98.105 E7.06703
G1 X93.836 Y97.629 F7800.000
G1 F900
G1 X79.664 Y97.629 E8.01375
G1 X79.664 Y90.958 E8.45942
G1 X93.836 Y90.958 E9.40614
G1 X93.836 Y97.569 E9.84780
G1 X93.300 Y97.093 F7800.000
G1 F900
G1 X80.200 Y97.093 E10.72295
G1 X80.200 Y91.493 E11.09706
G1 X93.300 Y91.493 E11.97221
G1 X93.300 Y97.033 E12.34232
G1 X93.452 Y97.463 F7800.000
G1 E8.34232 F2400.00000
G92 E0
G1 X94.000 Y97.793 F7800.000
G1 X94.000 Y100.550 F7800.000
G1 X84.881 Y100.553 F7800.000
G1 X82.527 Y100.930 F7800.000
G1 X80.755 Y101.571 F7800.000
G1 X80.353 Y102.769 F7800.000
G1 X80.013 Y104.775 F7800.000
G1 X80.005 Y106.467 F7800.000
G1 X82.939 Y109.426 F7800.000
G1 X82.653 Y109.125 F7800.000
G1 E4.00000 F2400.00000
G1 F900
G1 X77.347 Y109.125 E4.35452
G1 X77.350 Y88.077 E5.76063
G1 X77.384 Y87.853 E5.77579
G1 X77.422 Y87.732 E5.78425
G1 X77.530 Y87.555 E5.79815
G1 X122.467 Y87.556 E8.80014
G1 X122.553 Y87.681 E8.81031
G1 X122.623 Y87.885 E8.82470
G1 X122.652 Y88.098 E8.83908
G1 X122.652 Y92.126 E9.10816
G1 X121.848 Y91.464 E9.17772
G1 X121.185 Y91.128 E9.22739
G1 X120.498 Y90.954 E9.27474
G1 X120.041 Y90.919 E9.30535
G1 X119.351 Y90.977 E9.35160
G1 X118.642 Y91.198 E9.40122
G1 X117.998 Y91.570 E9.45089
G1 X117.451 Y92.074 E9.50057
G1 X117.048 Y92.656 E9.54791
G1 X116.854 Y93.072 E9.57853
G1 X116.666 Y93.738 E9.62478
G1 X116.626 Y94.479 E9.67439
G1 X116.748 Y95.213 E9.72407
G1 X117.013 Y95.866 E9.77119
G1 X117.248 Y96.248 E9.80109
G1 X117.711 Y96.780 E9.84822
G1 X118.310 Y97.220 E9.89789
G1 X118.956 Y97.503 E9.94502
G1 X119.390 Y97.613 E9.97492
G1 X120.093 Y97.672 E10.02205
G1 X120.792 Y97.575 E10.06918
G1 X121.219 Y97.441 E10.09908
G1 X121.848 Y97.123 E10.14620
G1 X122.652 Y96.460 E10.21579
G1 X122.653 Y109.115 E11.06114
G1 X117.347 Y109.124 E11.41566
G1 X117.347 Y105.194 E11.67823
G1 X117.284 Y104.767 E11.70699
G1 X117.105 Y104.344 E11.73770
G1 X116.890 Y104.015 E11.76396
G1 X116.621 Y103.712 E11.79104
G1 X116.109 Y103.315 E11.83432
G1 X115.519 Y103.048 E11.87759
G1 X115.121 Y102.954 E11.90485
G1 X114.751 Y102.922 E11.92971
G1 X85.249 Y102.922 E13.90057
G1 X84.833 Y102.958 E13.92847
G1 X84.198 Y103.154 E13.97284
G1 X83.606 Y103.510 E14.01901
G1 X83.134 Y103.979 E14.06347
G1 X82.895 Y104.344 E14.09264
G1 X82.716 Y104.768 E14.12335
G1 X82.653 Y105.194 E14.15211
G1 X82.653 Y109.065 E14.41077
G1 X83.146 Y109.661 F7800.000
G1 F900
G1 X76.832 Y109.661 E14.83257
G1 X76.811 Y109.271 E14.85864
G1 X76.815 Y88.037 E16.27716
G1 X76.860 Y87.732 E16.29778
G1 X76.986 Y87.401 E16.32143
G1 X77.135 Y87.199 E16.33823
G1 X77.284 Y87.082 E16.35087
G1 X77.380 Y87.043 E16.35777
G1 X77.522 Y87.019 E16.36740
G1 X122.447 Y87.020 E19.36865
G1 X122.615 Y87.042 E19.38000
G1 X122.773 Y87.123 E19.39187
G1 X122.908 Y87.252 E19.40434
G1 X123.017 Y87.409 E19.41709
G1 X123.079 Y87.536 E19.42652
G1 X123.149 Y87.773 E19.44299
G1 X123.187 Y88.062 E19.46253
G1 X123.189 Y109.271 E20.87938
G1 X123.169 Y109.649 E20.90468
G1 X116.854 Y109.660 E21.32653
G1 X116.824 Y109.513 E21.33659
G1 X116.811 Y109.271 E21.35274
G1 X116.811 Y105.233 E21.62256
G1 X116.764 Y104.913 E21.64412
G1 X116.630 Y104.597 E21.66706
G1 X116.463 Y104.341 E21.68748
G1 X116.253 Y104.105 E21.70858
G1 X115.831 Y103.777 E21.74432
G1 X115.345 Y103.558 E21.77993
G1 X115.036 Y103.484 E21.80113
G1 X114.728 Y103.458 E21.82181
G1 X85.272 Y103.458 E23.78958
G1 X84.936 Y103.487 E23.81212
G1 X84.419 Y103.646 E23.84830
G1 X83.938 Y103.936 E23.88580
G1 X83.551 Y104.319 E23.92215
G1 X83.370 Y104.597 E23.94435
G1 X83.236 Y104.913 E23.96729
G1 X83.189 Y105.233 E23.98885
G1 X83.189 Y109.271 E24.25867
G1 X83.158 Y109.602 E24.28086
G1 X83.493 Y110.197 F7800.000
G1 F900
G1 X76.507 Y110.196 E24.74755
G1 X76.399 Y110.018 E24.76149
G1 X76.355 Y109.894 E24.77026
G1 X76.292 Y109.592 E24.79088
G1 X76.275 Y109.285 E24.81140
G1 X76.279 Y87.998 E26.23352
G1 X76.336 Y87.612 E26.25960
G1 X76.422 Y87.339 E26.27866
G1 X76.520 Y87.133 E26.29393
G1 X76.762 Y86.813 E26.32076
G1 X77.040 Y86.603 E26.34401
G1 X77.232 Y86.525 E26.35783
G1 X77.477 Y86.483 E26.37444
G1 X122.481 Y86.485 E29.38096
G1 X122.744 Y86.518 E29.39865
G1 X122.908 Y86.579 E29.41036
G1 X123.101 Y86.696 E29.42544
G1 X123.317 Y86.903 E29.44544
G1 X123.480 Y87.138 E29.46452
G1 X123.580 Y87.341 E29.47966
G1 X123.674 Y87.660 E29.50190
G1 X123.723 Y88.027 E29.52660
G1 X123.725 Y109.285 E30.94678
G1 X123.708 Y109.592 E30.96729
G1 X123.645 Y109.894 E30.98791
G1 X123.601 Y110.018 E30.99669
G1 X123.500 Y110.184 E31.00968
G1 X116.507 Y110.196 E31.47686
G1 X116.399 Y110.018 E31.49081
G1 X116.356 Y109.895 E31.49955
G1 X116.291 Y109.581 E31.52091
G1 X116.275 Y109.285 E31.54071
G1 X116.275 Y105.271 E31.80886
G1 X116.244 Y105.059 E31.82321
G1 X116.156 Y104.850 E31.83838
G1 X116.036 Y104.667 E31.85297
