; generated by Slic3r 1.3.0-dev on 2018-09-04 at 09:56:44

; external perimeters extrusion width = 0.44mm (1.05mm^3/s)
; perimeters extrusion width = 0.56mm (2.69mm^3/s)
; infill extrusion width = 0.50mm (3.35mm^3/s)
; solid infill extrusion width = 0.56mm (1.08mm^3/s)
; top infill extrusion width = 0.56mm (0.81mm^3/s)

M107
M104 S210 ; set temperature
G28 ; home all axes
G1 Z5 F5000 ; lift nozzle

; Filament gcode

M109 S210 ; set temperature and wait for it to be reached
G21 ; set units to millimeters
G90 ; use absolute coordinates
M82 ; use absolute distances for extrusion
G92 E0
G1 Z0.300 F7800.000
G1 E-10.00000 F2400.00000
G92 E0
G1 X86.504 Y91.087 F7800.000
G1 E10.00000 F2400.00000
G1 F900
G1 X88.253 Y89.628 E10.15978
G1 X91.500 Y88.764 E10.39543
G1 X108.500 Y88.764 E11.58791
G1 X110.743 Y89.161 E11.74769
G1 X112.713 Y90.304 E11.90747
G1 X114.172 Y92.053 E12.06725
G1 X115.036 Y95.300 E12.30290
G1 X115.036 Y104.700 E12.96227
G1 X114.639 Y106.943 E13.12205
G1 X113.496 Y108.913 E13.28183
G1 X111.747 Y110.372 E13.44161
G1 X108.500 Y111.236 E13.67726
G1 X91.500 Y111.236 E14.86973
G1 X89.257 Y110.839 E15.02951
G1 X87.287 Y109.696 E15.18929
G1 X85.828 Y107.947 E15.34907
G1 X84.964 Y104.700 E15.58472
G1 X84.964 Y95.300 E16.24409
G1 X85.361 Y93.057 E16.40387
G1 X86.474 Y91.138 E16.55944
G1 E6.55944 F2400.00000
G92 E0
G1 X99.668 Y102.355 F7800.000
G1 E10.00000 F2400.00000
G1 F900
G1 X99.251 Y102.680 E10.03708
G1 X98.786 Y102.931 E10.07417
G1 X98.286 Y103.103 E10.11125
G1 X97.764 Y103.190 E10.14834
G1 X97.236 Y103.190 E10.18542
G1 X96.714 Y103.103 E10.22251
G1 X96.214 Y102.931 E10.25959
G1 X95.749 Y102.680 E10.29668
G1 X95.332 Y102.355 E10.33376
G1 X94.974 Y101.966 E10.37084
G1 X94.685 Y101.524 E10.40793
G1 X94.472 Y101.039 E10.44501
G1 X94.343 Y100.527 E10.48210
G1 X94.299 Y100.000 E10.51918
G1 X94.343 Y99.473 E10.55627
G1 X94.466 Y98.985 E10.59159
G1 X94.684 Y98.477 E10.63033
G1 X94.974 Y98.034 E10.66750
G1 X95.332 Y97.645 E10.70458
G1 X95.749 Y97.320 E10.74167
G1 X96.214 Y97.069 E10.77875
G1 X96.714 Y96.897 E10.81584
G1 X97.236 Y96.810 E10.85292
G1 X97.764 Y96.810 E10.89001
G1 X98.286 Y96.897 E10.92709
G1 X98.786 Y97.069 E10.96417
G1 X99.251 Y97.320 E11.00126
G1 X99.668 Y97.645 E11.03834
G1 X100.026 Y98.034 E11.07543
G1 X100.315 Y98.476 E11.11251
G1 X100.528 Y98.961 E11.14960
G1 X100.657 Y99.473 E11.18668
G1 X100.701 Y100.000 E11.22377
G1 X100.657 Y100.527 E11.26085
G1 X100.528 Y101.039 E11.29793
G1 X100.315 Y101.524 E11.33502
G1 X100.026 Y101.966 E11.37210
G1 X99.709 Y102.311 E11.40498
G1 X99.668 Y102.355 F7800.000
G1 E1.40498 F2400.00000
G92 E0
G1 X100.620 Y102.375 F7800.000
G1 X95.127 Y103.437 F7800.000
G1 X94.772 Y103.329 F7800.000
G1 E10.00000 F2400.00000
G1 F900
G1 X92.871 Y103.329 E10.13335
G1 X92.871 Y96.671 E10.60035
G1 X94.772 Y96.671 E10.73370
G1 X94.126 Y97.374 E10.80067
G1 X93.736 Y97.969 E10.85059
G1 X93.449 Y98.640 E10.90178
G1 X93.282 Y99.296 E10.94926
G1 X93.224 Y100.000 E10.99880
G1 X93.282 Y100.704 E11.04834
G1 X93.456 Y101.388 E11.09787
G1 X93.739 Y102.035 E11.14741
G1 X94.126 Y102.626 E11.19695
G1 X94.732 Y103.285 E11.25971
G1 X96.500 Y103.596 F7800.000
G1 F900
G1 X96.455 Y103.864 E11.27880
G1 X92.336 Y103.864 E11.56779
G1 X92.336 Y96.136 E12.10993
G1 X96.455 Y96.136 E12.39891
G1 X96.500 Y96.404 E12.41800
G1 X95.998 Y96.576 E12.45523
G1 X95.455 Y96.870 E12.49854
G1 X94.968 Y97.250 E12.54185
G1 X94.550 Y97.704 E12.58516
G1 X94.210 Y98.223 E12.62870
G1 X93.957 Y98.813 E12.67367
G1 X93.813 Y99.385 E12.71507
G1 X93.762 Y100.000 E12.75838
G1 X93.813 Y100.615 E12.80169
G1 X93.964 Y101.214 E12.84500
G1 X94.212 Y101.779 E12.88831
G1 X94.550 Y102.296 E12.93162
G1 X94.968 Y102.750 E12.97493
G1 X95.455 Y103.130 E13.01825
G1 X95.998 Y103.424 E13.06156
G1 X96.443 Y103.576 E13.09457
G1 E3.09457 F2400.00000
G92 E0
G1 X100.228 Y103.329 F7800.000
G1 E10.00000 F2400.00000
G1 F900
G1 X100.874 Y102.626 E10.06697
G1 X101.261 Y102.035 E10.11651
G1 X101.544 Y101.388 E10.16605
G1 X101.718 Y100.704 E10.21558
G1 X101.776 Y100.000 E10.26512
G1 X101.718 Y99.296 E10.31466
G1 X101.544 Y98.612 E10.36420
G1 X101.261 Y97.965 E10.41373
G1 X100.874 Y97.374 E10.46327
G1 X100.228 Y96.671 E10.53024
G1 X107.129 Y96.671 E11.01432
G1 X107.129 Y103.329 E11.48132
G1 X100.288 Y103.329 E11.96119
G1 X98.500 Y103.596 F7800.000
G1 F900
G1 X99.002 Y103.424 E11.99841
G1 X99.545 Y103.130 E12.04173
G1 X100.032 Y102.750 E12.08504
G1 X100.450 Y102.296 E12.12835
G1 X100.788 Y101.779 E12.17166
G1 X101.036 Y101.214 E12.21497
G1 X101.187 Y100.615 E12.25828
G1 X101.238 Y100.000 E12.30159
G1 X101.187 Y99.385 E12.34490
G1 X101.036 Y98.786 E12.38821
G1 X100.788 Y98.221 E12.43152
G1 X100.450 Y97.704 E12.47484
G1 X100.032 Y97.250 E12.51815
G1 X99.545 Y96.870 E12.56146
G1 X99.002 Y96.576 E12.60477
G1 X98.500 Y96.404 E12.64199
G1 X98.545 Y96.136 E12.66108
G1 X107.664 Y96.136 E13.30080
G1 X107.664 Y103.864 E13.84293
G1 X98.545 Y103.864 E14.48265
G1 X98.510 Y103.655 E14.49753
G1 E4.49753 F2400.00000
G92 E0
G1 X91.800 Y104.400 F7800.000
G1 E10.00000 F2400.00000
G1 F900
G1 X91.800 Y95.600 E10.61728
G1 X108.200 Y95.600 E11.76767
G1 X108.200 Y104.400 E12.38495
G1 X91.860 Y104.400 E13.53113
G1 X91.941 Y104.026 F7800.000
G1 E3.53113 F2400.00000
G92 E0
G1 X93.538 Y103.061 F7800.000
G1 E10.00000 F2400.00000
G1 F900
G1 X93.139 Y101.490 E10.07044
G1 X93.139 Y102.579 F7800.000
G1 F900
G1 X94.123 Y103.061 E10.11123
G1 X95.080 Y103.219 F7800.000
G1 F900
G1 X95.282 Y103.404 E10.11293
G1 F900
G1 X95.529 Y103.597 E10.11726
G1 X96.745 Y103.759 F7800.000
G1 F900
G1 X97.213 Y103.795 E10.15580
G1 X97.787 Y103.795 E10.20277
G1 X98.255 Y103.759 E10.24131
G1 X99.471 Y103.597 F7800.000
G1 F900
G1 X99.595 Y103.500 E10.24348
G1 F900
G1 X99.920 Y103.219 E10.24603
G1 E0.24603 F2400.00000
G92 E0
G1 X99.763 Y103.473 F7800.000
G1 X101.486 Y102.755 F7800.000
G1 X103.329 Y101.550 F7800.000
G1 X104.430 Y100.630 F7800.000
G1 X104.430 Y99.370 F7800.000
G1 X103.542 Y98.607 F7800.000
G1 X101.840 Y97.438 F7800.000
G1 X100.552 Y96.808 F7800.000
G1 X100.151 Y97.121 F7800.000
G1 X99.920 Y96.781 F7800.000
G1 E10.00000 F2400.00000
G1 F900
G1 X99.595 Y96.500 E10.00255
G1 F900
G1 X99.471 Y96.403 E10.00471
G1 X98.255 Y96.241 F7800.000
G1 F900
G1 X97.787 Y96.205 E10.04326
G1 X97.213 Y96.205 E10.09022
G1 X96.745 Y96.241 E10.12877
G1 X95.529 Y96.403 F7800.000
G1 F900
G1 X95.282 Y96.596 E10.13310
G1 F900
G1 X95.080 Y96.781 E10.13480
G1 X94.123 Y96.939 F7800.000
G1 F900
G1 X93.139 Y97.421 E10.17559
G1 X93.536 Y96.939 F7800.000
G1 F900
G1 X93.139 Y98.515 E10.24540
G1 E0.24540 F2400.00000
G92 E0
G1 X101.840 Y97.438 F7800.000
G1 X101.614 Y96.999 F7800.000
G1 E10.00000 F2400.00000
G1 F900
G1 X101.197 Y97.415 E10.04200
G1 X101.501 Y97.881 E10.08162
G1 X102.383 Y96.999 E10.17053
G1 X103.153 Y96.999 E10.22538
G1 X101.741 Y98.410 E10.36765
G1 X101.844 Y98.645 E10.38596
G1 X101.931 Y98.989 E10.41125
G1 X103.922 Y96.999 E10.61190
G1 X104.692 Y96.999 E10.66675
G1 X102.057 Y99.633 E10.93227
G1 X102.105 Y100.208 E10.97341
G1 X102.092 Y100.368 E10.98484
G1 X105.461 Y96.999 E11.32445
G1 X106.231 Y96.999 E11.37929
G1 X101.975 Y101.254 E11.80823
G1 X101.844 Y101.771 E11.84622
G1 X101.544 Y102.455 E11.89940
G1 X106.801 Y97.198 E12.42923
G1 X106.801 Y97.967 E12.48408
G1 X101.767 Y103.001 E12.99145
G1 X102.537 Y103.001 E13.04630
G1 X106.801 Y98.737 E13.47611
G1 X106.801 Y99.506 E13.53096
G1 X103.306 Y103.001 E13.88321
G1 X104.076 Y103.001 E13.93805
G1 X106.801 Y100.276 E14.21274
G1 X106.801 Y101.046 E14.26759
G1 X104.846 Y103.001 E14.46472
G1 X105.615 Y103.001 E14.51956
G1 X106.801 Y101.815 E14.63913
G1 X106.801 Y102.585 E14.69397
G1 X106.385 Y103.001 E14.73597
M104 S200 ; set temperature
G1 Z0.400 F7800.000
G1 E4.73597 F2400.00000
G92 E0
G1 X94.658 Y102.212 F7800.000
G1 E10.00000 F2400.00000
G1 F900
G1 X94.333 Y101.714 E10.01398
G1 X94.094 Y101.169 E10.02796
G1 X93.948 Y100.593 E10.04194
G1 X93.899 Y100.000 E10.05593
G1 X93.948 Y99.407 E10.06991
G1 X94.094 Y98.831 E10.08389
G1 X94.333 Y98.286 E10.09787
G1 X94.658 Y97.788 E10.11185
G1 X95.061 Y97.351 E10.12583
G1 X95.530 Y96.985 E10.13982
G1 X96.081 Y96.687 E10.15454
G1 X96.620 Y96.509 E10.16787
G1 X97.203 Y96.411 E10.18177
G1 X97.797 Y96.411 E10.19575
G1 X98.384 Y96.509 E10.20973
G1 X98.888 Y96.682 E10.22226
G1 X99.465 Y96.982 E10.23754
G1 X99.939 Y97.351 E10.25166
G1 X100.342 Y97.788 E10.26564
G1 X100.667 Y98.286 E10.27963
G1 X100.906 Y98.831 E10.29361
G1 X101.052 Y99.407 E10.30759
G1 X101.101 Y100.000 E10.32157
G1 X101.052 Y100.593 E10.33555
G1 X100.906 Y101.169 E10.34953
G1 X100.667 Y101.714 E10.36352
G1 X100.342 Y102.212 E10.37750
G1 X99.939 Y102.649 E10.39148
G1 X99.470 Y103.015 E10.40546
G1 X98.919 Y103.313 E10.42018
G1 X98.380 Y103.491 E10.43352
G1 X97.797 Y103.589 E10.44742
G1 X97.203 Y103.589 E10.46140
G1 X96.616 Y103.491 E10.47538
G1 X96.054 Y103.298 E10.48936
G1 X95.530 Y103.015 E10.50334
G1 X95.061 Y102.649 E10.51732
G1 X94.699 Y102.256 E10.52989
G1 X95.037 Y101.917 F7800.000
G1 F900
G1 X94.755 Y101.485 E10.53931
G1 X94.548 Y101.013 E10.54873
G1 X94.422 Y100.514 E10.55815
G1 X94.379 Y100.000 E10.56756
G1 X94.422 Y99.486 E10.57698
G1 X94.548 Y98.987 E10.58640
G1 X94.755 Y98.515 E10.59582
G1 X95.037 Y98.083 E10.60523
G1 X95.386 Y97.704 E10.61465
G1 X95.793 Y97.387 E10.62407
G1 X96.272 Y97.128 E10.63401
G1 X96.735 Y96.975 E10.64293
G1 X97.242 Y96.890 E10.65233
G1 X97.758 Y96.890 E10.66174
G1 X98.266 Y96.975 E10.67116
G1 X98.699 Y97.123 E10.67952
G1 X99.205 Y97.386 E10.68995
G1 X99.614 Y97.704 E10.69940
G1 X99.963 Y98.083 E10.70882
G1 X100.245 Y98.515 E10.71823
G1 X100.452 Y98.987 E10.72765
G1 X100.578 Y99.486 E10.73707
G1 X100.621 Y100.000 E10.74648
G1 X100.578 Y100.514 E10.75590
G1 X100.452 Y101.013 E10.76532
G1 X100.245 Y101.485 E10.77474
G1 X99.963 Y101.917 E10.78415
G1 X99.614 Y102.296 E10.79357
G1 X99.207 Y102.613 E10.80299
G1 X98.728 Y102.872 E10.81293
G1 X98.265 Y103.025 E10.82185
G1 X97.758 Y103.110 E10.83125
G1 X97.242 Y103.110 E10.84066
G1 X96.734 Y103.025 E10.85008
G1 X96.246 Y102.858 E10.85950
G1 X95.793 Y102.613 E10.86892
G1 X95.386 Y102.296 E10.87833
G1 X95.078 Y101.961 E10.88665
G1 X95.037 Y101.917 F7800.000
G1 X94.874 Y103.463 F7800.000
G1 F900
G1 X92.737 Y103.463 E10.93690
G1 X92.737 Y96.537 E11.09972
G1 X94.874 Y96.537 E11.14997
G1 X94.949 Y96.755 E11.15540
G1 X94.695 Y96.953 E11.16297
G1 X94.232 Y97.456 E11.17905
G1 X93.858 Y98.029 E11.19513
G1 X93.583 Y98.655 E11.21121
G1 X93.415 Y99.318 E11.22729
G1 X93.359 Y100.000 E11.24337
G1 X93.415 Y100.682 E11.25945
G1 X93.583 Y101.345 E11.27553
G1 X93.858 Y101.971 E11.29161
G1 X94.232 Y102.544 E11.30769
G1 X94.695 Y103.047 E11.32377
G1 X94.949 Y103.245 E11.33134
G1 X94.894 Y103.406 E11.33535
G1 X100.126 Y103.463 F7800.000
G1 F900
G1 X100.051 Y103.245 E11.34078
G1 X100.305 Y103.047 E11.34835
G1 X100.768 Y102.544 E11.36443
G1 X101.142 Y101.971 E11.38051
G1 X101.417 Y101.345 E11.39659
G1 X101.585 Y100.682 E11.41267
G1 X101.641 Y100.000 E11.42875
G1 X101.585 Y99.318 E11.44483
G1 X101.417 Y98.655 E11.46091
G1 X101.142 Y98.029 E11.47699
G1 X100.768 Y97.456 E11.49307
G1 X100.305 Y96.953 E11.50915
G1 X100.051 Y96.755 E11.51672
G1 X100.126 Y96.537 E11.52215
G1 X107.263 Y96.537 E11.68994
G1 X107.263 Y103.463 E11.85276
G1 X100.186 Y103.463 E12.01915
G1 X107.801 Y104.001 F7800.000
G1 F3000
G1 X92.199 Y104.001 E12.38596
G1 X92.199 Y95.999 E12.57411
G1 X107.801 Y95.999 E12.94092
G1 X107.801 Y103.941 E13.12765
G1 X108.280 Y104.480 F7800.000
G1 F1500
G1 X91.720 Y104.480 E13.43022
G1 X91.720 Y95.520 E13.59393
G1 X108.280 Y95.520 E13.89649
G1 X108.280 Y104.420 E14.05911
G1 X107.885 Y104.414 F7800.000
G1 X106.934 Y97.285 F7800.000
G1 F1200
G1 X106.515 Y96.866 E14.07361
G1 X105.722 Y96.866 E14.09301
G1 X106.934 Y98.078 E14.13496
G1 X106.934 Y98.871 E14.15436
G1 X104.929 Y96.866 E14.22375
G1 X104.136 Y96.866 E14.24316
G1 X106.934 Y99.664 E14.33999
G1 X106.934 Y100.457 E14.35939
G1 X103.343 Y96.866 E14.48367
G1 X102.550 Y96.866 E14.50307
G1 X106.934 Y101.250 E14.65479
G1 X106.934 Y102.042 E14.67419
G1 X101.758 Y96.866 E14.85335
G1 X101.317 Y96.866 E14.86414
G1 X101.119 Y97.020 E14.87028
G1 X106.934 Y102.835 E15.07155
G1 X106.934 Y103.134 E15.07886
G1 X106.440 Y103.134 E15.09095
G1 X101.767 Y98.461 E15.25268
G1 X101.908 Y99.020 E15.26679
G1 X101.942 Y99.429 E15.27685
G1 X105.647 Y103.134 E15.40506
G1 X104.854 Y103.134 E15.42447
G1 X101.937 Y100.217 E15.52543
G1 X101.908 Y100.561 E15.53388
G1 X101.823 Y100.896 E15.54235
G1 X104.061 Y103.134 E15.61979
G1 X103.268 Y103.134 E15.63919
G1 X101.635 Y101.501 E15.69571
G1 X101.389 Y102.048 E15.71039
G1 X102.475 Y103.134 E15.74798
G1 X101.736 Y103.134 E15.76608
G1 X101.495 Y102.947 E15.77354
G1 X101.076 Y102.527 E15.78806
G1 X100.752 Y103.004 F7800.000
G1 F1200
G1 X100.605 Y103.194 E15.78880
G1 X99.847 Y103.480 F7800.000
G1 F1200
G1 X98.807 Y103.684 E15.79624
G1 F1200
G1 X98.684 Y103.704 E15.79669
G1 X99.541 Y103.732 F7800.000
G1 F1200
G1 X99.738 Y103.162 E15.80242
G1 X96.322 Y103.704 F7800.000
G1 F1200
G1 X96.050 Y103.659 E15.80347
G1 F1200
G1 X95.154 Y103.477 E15.81029
G1 X95.262 Y103.162 F7800.000
G1 F1200
G1 X95.459 Y103.732 E15.81602
G1 X94.395 Y103.194 F7800.000
G1 F1200
G1 X94.248 Y103.004 E15.81675
G1 X93.291 Y102.201 F7800.000
G1 F1200
G1 X93.169 Y101.472 E15.82688
G1 F1200
G1 X93.124 Y101.108 E15.83103
G1 F1200
G1 X93.079 Y100.744 E15.83373
G1 F1200
G1 X93.047 Y100.003 E15.83667
G1 X93.063 Y99.632 E15.83815
G1 F1200
G1 X93.101 Y99.074 E15.84226
G1 F1200
G1 X93.147 Y98.710 E15.84642
G1 F1200
G1 X93.291 Y97.799 E15.85905
G1 X94.248 Y96.996 F7800.000
G1 F1200
G1 X94.395 Y96.806 E15.85979
G1 X95.153 Y96.520 F7800.000
G1 F1200
G1 X96.069 Y96.336 E15.86609
G1 F1200
G1 X96.316 Y96.296 E15.86699
G1 X95.459 Y96.268 F7800.000
G1 F1200
G1 X95.262 Y96.838 E15.87272
G1 X98.678 Y96.296 F7800.000
G1 F1200
G1 X98.793 Y96.315 E15.87312
G1 F1200
G1 X99.846 Y96.523 E15.88037
G1 X99.738 Y96.836 F7800.000
G1 F1200
G1 X99.539 Y96.268 E15.88655
G1 X100.605 Y96.806 F7800.000
G1 F1200
G1 X100.752 Y96.996 E15.88729
G1 Z0.500 F7800.000
G1 X100.878 Y101.233 F7800.000
G1 F900
G1 X100.667 Y101.714 E15.89963
G1 X100.342 Y102.212 E15.91361
G1 X99.939 Y102.649 E15.92759
G1 X99.470 Y103.015 E15.94157
G1 X98.946 Y103.298 E15.95555
G1 X98.384 Y103.491 E15.96954
G1 X97.797 Y103.589 E15.98352
G1 X97.203 Y103.589 E15.99750
G1 X96.616 Y103.491 E16.01148
G1 X96.054 Y103.298 E16.02546
G1 X95.530 Y103.015 E16.03944
G1 X95.061 Y102.649 E16.05343
G1 X94.658 Y102.212 E16.06741
G1 X94.333 Y101.714 E16.08139
G1 X94.094 Y101.169 E16.09537
G1 X93.948 Y100.593 E16.10935
G1 X93.906 Y100.079 E16.12147
G1 X93.946 Y99.415 E16.13712
G1 X94.094 Y98.831 E16.15128
G1 X94.333 Y98.286 E16.16526
G1 X94.658 Y97.788 E16.17924
G1 X95.061 Y97.351 E16.19322
G1 X95.530 Y96.985 E16.20720
G1 X95.984 Y96.740 E16.21932
G1 X96.609 Y96.510 E16.23497
G1 X97.203 Y96.411 E16.24913
G1 X97.797 Y96.411 E16.26311
G1 X98.384 Y96.509 E16.27709
G1 X98.946 Y96.702 E16.29107
G1 X99.470 Y96.985 E16.30506
G1 X99.939 Y97.351 E16.31904
G1 X100.342 Y97.788 E16.33302
G1 X100.667 Y98.286 E16.34700
G1 X100.906 Y98.831 E16.36098
G1 X101.052 Y99.407 E16.37496
G1 X101.101 Y100.000 E16.38895
G1 X101.052 Y100.593 E16.40293
G1 X100.902 Y101.178 E16.41713
G1 X100.440 Y101.041 F7800.000
G1 F900
G1 X100.245 Y101.485 E16.42600
G1 X99.963 Y101.917 E16.43542
G1 X99.614 Y102.296 E16.44484
G1 X99.207 Y102.613 E16.45425
G1 X98.754 Y102.858 E16.46367
G1 X98.266 Y103.025 E16.47309
G1 X97.758 Y103.110 E16.48251
G1 X97.242 Y103.110 E16.49192
G1 X96.734 Y103.025 E16.50134
G1 X96.246 Y102.858 E16.51076
G1 X95.793 Y102.613 E16.52017
G1 X95.386 Y102.296 E16.52959
G1 X95.037 Y101.917 E16.53901
G1 X94.755 Y101.485 E16.54843
G1 X94.548 Y101.013 E16.55784
G1 X94.422 Y100.514 E16.56726
G1 X94.385 Y100.074 E16.57532
G1 X94.421 Y99.489 E16.58604
G1 X94.548 Y98.987 E16.59550
G1 X94.755 Y98.515 E16.60491
G1 X95.037 Y98.083 E16.61433
G1 X95.386 Y97.704 E16.62375
G1 X95.793 Y97.387 E16.63316
G1 X96.181 Y97.177 E16.64123
G1 X96.732 Y96.975 E16.65194
G1 X97.242 Y96.890 E16.66140
G1 X97.758 Y96.890 E16.67082
G1 X98.266 Y96.975 E16.68024
G1 X98.754 Y97.142 E16.68965
