; generated by Slic3r 1.3.0-dev on 2018-09-02 at 10:24:43

; external perimeters extrusion width = 0.44mm (1.05mm^3/s)
; perimeters extrusion width = 0.56mm (2.69mm^3/s)
; infill extrusion width = 0.50mm (3.35mm^3/s)
; solid infill extrusion width = 0.56mm (1.08mm^3/s)
; top infill extrusion width = 0.56mm (0.81mm^3/s)

M107
M104 S210 ; set temperature
G28 ; home all axes
G1 Z5 F5000 ; lift nozzle

; Filament gcode

M109 S210 ; set temperature and wait for it to be reached
G21 ; set units to millimeters
G90 ; use absolute coordinates
M82 ; use absolute distances for extrusion
G92 E0
G1 Z0.300 F7800.000
G1 E-10.00000 F2400.00000
G92 E0
G1 X76.379 Y49.879 F7800.000
G1 E10.00000 F2400.00000
G1 F900
G1 X77.379 Y48.879 E10.09920
G1 X79.245 Y47.573 E10.25898
G1 X81.447 Y46.988 E10.41876
G1 X83.715 Y47.193 E10.57854
G1 X86.324 Y48.599 E10.78643
G1 X120.324 Y78.599 E13.96705
G1 X120.621 Y78.879 E13.99566
G1 X123.621 Y81.879 E14.29327
G1 X124.927 Y83.745 E14.45305
G1 X125.536 Y86.500 E14.65094
G1 X125.536 Y113.500 E16.54487
G1 X125.139 Y115.743 E16.70465
G1 X123.621 Y118.121 E16.90254
G1 X120.324 Y121.401 E17.22875
G1 X86.324 Y151.401 E20.40937
G1 X84.380 Y152.587 E20.56915
G1 X82.146 Y153.034 E20.72893
G1 X79.895 Y152.687 E20.88871
G1 X77.379 Y151.121 E21.09660
G1 X76.379 Y150.121 E21.19580
G1 X75.073 Y148.255 E21.35558
G1 X74.464 Y145.500 E21.55347
G1 X74.464 Y54.500 E27.93673
G1 X74.861 Y52.257 E28.09651
G1 X76.346 Y49.929 E28.29019
G1 E18.29019 F2400.00000
G92 E0
G1 X114.707 Y110.700 F7800.000
G1 E10.00000 F2400.00000
G1 F900
G1 X114.326 Y112.492 E10.12854
G1 X113.249 Y113.975 E10.25707
G1 X111.662 Y114.891 E10.38560
G1 X109.839 Y115.083 E10.51414
G1 X108.097 Y114.516 E10.64268
G1 X106.735 Y113.290 E10.77121
G1 X105.990 Y111.616 E10.89975
G1 X105.990 Y109.784 E11.02828
G1 X106.735 Y108.110 E11.15682
G1 X108.097 Y106.884 E11.28536
G1 X109.839 Y106.317 E11.41389
G1 X111.662 Y106.509 E11.54243
G1 X113.249 Y107.425 E11.67096
G1 X114.326 Y108.908 E11.79950
G1 X114.694 Y110.641 E11.92382
G1 X114.707 Y110.700 F7800.000
G1 E1.92382 F2400.00000
G92 E0
G1 X115.422 Y110.700 F7800.000
G1 X116.697 Y110.429 F7800.000
G1 X116.322 Y107.609 F7800.000
G1 X114.492 Y105.569 F7800.000
G1 X112.840 Y104.301 F7800.000
G1 X112.032 Y104.166 F7800.000
G1 X109.855 Y104.065 F7800.000
G1 X107.143 Y104.429 F7800.000
G1 X104.164 Y105.477 F7800.000
G1 X102.786 Y106.189 F7800.000
G1 X100.656 Y107.572 F7800.000
G1 X98.821 Y109.000 F7800.000
G1 X91.847 Y109.000 F7800.000
G1 X88.000 Y110.991 F7800.000
G1 X88.000 Y115.500 F7800.000
G1 X87.629 Y115.129 F7800.000
G1 E10.00000 F2400.00000
G1 F900
G1 X87.629 Y138.932 E11.66970
G1 X82.371 Y144.190 E12.19125
G1 X82.371 Y111.786 E14.46423
G1 X88.675 Y102.871 E15.23008
G1 X113.432 Y102.871 E16.96670
G1 X117.629 Y107.068 E17.38302
G1 X117.629 Y112.932 E17.79435
G1 X115.432 Y115.129 E18.01227
G1 X113.869 Y115.129 E18.12193
G1 X113.805 Y114.891 E18.13922
G1 X113.981 Y114.789 E18.15352
G1 X115.326 Y112.938 E18.31400
G1 X115.802 Y110.700 E18.47448
G1 X115.326 Y108.462 E18.63496
G1 X113.981 Y106.611 E18.79544
G1 X112.000 Y105.467 E18.95591
G1 X109.725 Y105.228 E19.11640
G1 X107.549 Y105.935 E19.27688
G1 X105.849 Y107.466 E19.43736
G1 X104.918 Y109.556 E19.59784
G1 X104.918 Y111.844 E19.75832
G1 X105.849 Y113.934 E19.91879
G1 X107.176 Y115.129 E20.04405
G1 X87.689 Y115.129 E21.41099
G1 X88.164 Y115.664 F7800.000
G1 F900
G1 X88.164 Y139.154 E23.05868
G1 X82.000 Y145.318 E23.67019
G1 X81.836 Y145.154 E23.68650
G1 X81.836 Y111.616 E26.03906
G1 X88.398 Y102.336 E26.83631
G1 X113.654 Y102.336 E28.60793
G1 X118.164 Y106.846 E29.05538
G1 X118.164 Y113.154 E29.49784
G1 X115.654 Y115.664 E29.74689
G1 X111.870 Y115.664 E30.01231
G1 X111.806 Y115.426 E30.02961
G1 X113.615 Y114.382 E30.17613
G1 X114.826 Y112.715 E30.32064
G1 X115.254 Y110.700 E30.46515
G1 X114.826 Y108.685 E30.60966
G1 X113.615 Y107.018 E30.75416
G1 X111.831 Y105.988 E30.89867
G1 X109.782 Y105.773 E31.04318
G1 X107.823 Y106.409 E31.18769
G1 X106.292 Y107.788 E31.33220
G1 X105.454 Y109.670 E31.47670
G1 X105.454 Y111.730 E31.62121
G1 X106.292 Y113.612 E31.76572
G1 X107.823 Y114.991 E31.91023
G1 X109.062 Y115.393 E32.00165
G1 X109.019 Y115.664 E32.02090
G1 X88.224 Y115.664 E33.47958
G1 X88.700 Y116.200 F7800.000
G1 F900
G1 X88.700 Y139.376 E35.10526
G1 X82.000 Y146.076 E35.76991
G1 X81.300 Y145.376 E35.83935
G1 X81.300 Y111.445 E38.21942
G1 X88.120 Y101.800 E39.04806
G1 X113.876 Y101.800 E40.85469
G1 X118.700 Y106.624 E41.33326
G1 X118.700 Y113.376 E41.80685
G1 X115.876 Y116.200 E42.08702
G1 X88.760 Y116.200 E43.98907
G1 X88.300 Y116.213 F7800.000
G1 X87.245 Y115.049 F7800.000
G1 F900
G1 X82.755 Y119.538 E44.43834
G1 X82.755 Y120.302 E44.49242
G1 X87.245 Y115.813 E44.94170
G1 X87.245 Y116.577 E44.99577
G1 X82.755 Y121.066 E45.44505
G1 X82.755 Y121.830 E45.49912
G1 X87.245 Y117.341 E45.94840
G1 X87.245 Y118.105 E46.00247
G1 X82.755 Y122.595 E46.45175
G1 X82.755 Y123.359 E46.50583
G1 X87.245 Y118.869 E46.95510
G1 X87.245 Y119.634 E47.00918
G1 X82.755 Y124.123 E47.45845
G1 X82.755 Y124.887 E47.51253
G1 X87.245 Y120.398 E47.96181
G1 X87.245 Y121.162 E48.01588
G1 X82.755 Y125.651 E48.46516
G1 X82.755 Y126.415 E48.51923
G1 X87.245 Y121.926 E48.96851
G1 X87.245 Y122.690 E49.02258
G1 X82.755 Y127.180 E49.47186
G1 X82.755 Y127.944 E49.52594
G1 X87.245 Y123.454 E49.97521
G1 X87.245 Y124.219 E50.02929
G1 X82.755 Y128.708 E50.47856
G1 X82.755 Y129.472 E50.53264
G1 X87.245 Y124.983 E50.98191
G1 X87.245 Y125.747 E51.03599
G1 X82.755 Y130.236 E51.48527
G1 X82.755 Y131.000 E51.53934
G1 X87.245 Y126.511 E51.98862
G1 X87.245 Y127.275 E52.04269
G1 X82.755 Y131.765 E52.49197
G1 X82.755 Y132.529 E52.54605
G1 X87.245 Y128.039 E52.99532
G1 X87.245 Y128.804 E53.04940
G1 X82.755 Y133.293 E53.49867
G1 X82.755 Y134.057 E53.55275
G1 X87.245 Y129.568 E54.00203
G1 X87.245 Y130.332 E54.05610
G1 X82.755 Y134.821 E54.50538
G1 X82.755 Y135.585 E54.55945
G1 X87.245 Y131.096 E55.00873
G1 X87.245 Y131.860 E55.06280
G1 X82.755 Y136.350 E55.51208
G1 X82.755 Y137.114 E55.56616
G1 X87.245 Y132.624 E56.01543
G1 X87.245 Y133.389 E56.06951
G1 X82.755 Y137.878 E56.51878
G1 X82.755 Y138.642 E56.57286
G1 X87.245 Y134.153 E57.02214
G1 X87.245 Y134.917 E57.07621
G1 X82.755 Y139.406 E57.52549
G1 X82.755 Y140.170 E57.57956
G1 X87.245 Y135.681 E58.02884
G1 X87.245 Y136.445 E58.08291
G1 X82.755 Y140.935 E58.53219
G1 X82.755 Y141.699 E58.58627
G1 X87.245 Y137.209 E59.03554
G1 X87.245 Y137.974 E59.08962
G1 X82.755 Y142.463 E59.53889
G1 E49.53889 F2400.00000
G92 E0
G1 X82.000 Y145.086 F7800.000
G1 X85.000 Y137.843 F7800.000
G1 X85.000 Y115.500 F7800.000
G1 X85.602 Y112.813 F7800.000
G1 X88.000 Y110.991 F7800.000
G1 X91.847 Y109.000 F7800.000
G1 X98.821 Y109.000 F7800.000
G1 X101.555 Y111.765 F7800.000
G1 X97.483 Y114.745 F7800.000
G1 E10.00000 F2400.00000
G1 F900
G1 X98.247 Y114.745 E10.05408
G1 X105.203 Y107.788 E10.75023
G1 X104.590 Y109.166 E10.85693
G1 X99.011 Y114.745 E11.41524
G1 X99.775 Y114.745 E11.46932
G1 X104.534 Y109.986 E11.94559
G1 X104.534 Y110.750 E11.99966
G1 X100.539 Y114.745 E12.39946
G1 X101.304 Y114.745 E12.45354
G1 X104.534 Y111.514 E12.77686
G1 X104.534 Y111.806 E12.79754
G1 X104.680 Y112.133 E12.82283
G1 X102.068 Y114.745 E13.08422
G1 X102.832 Y114.745 E13.13830
G1 X104.915 Y112.661 E13.34678
G1 X105.150 Y113.190 E13.38773
G1 X103.596 Y114.745 E13.54329
G1 X104.360 Y114.745 E13.59737
G1 X105.386 Y113.719 E13.70001
G1 X105.557 Y114.104 E13.72986
G1 X105.666 Y114.203 E13.74025
G1 X105.124 Y114.745 E13.79450
G1 E3.79450 F2400.00000
G92 E0
G1 X105.469 Y114.474 F7800.000
G1 X102.864 Y112.845 F7800.000
G1 X101.555 Y111.765 F7800.000
G1 X98.821 Y109.000 F7800.000
G1 X100.656 Y107.572 F7800.000
G1 X104.164 Y105.477 F7800.000
G1 X107.143 Y104.429 F7800.000
G1 X109.855 Y104.065 F7800.000
G1 X112.840 Y104.301 F7800.000
G1 X114.951 Y106.004 F7800.000
G1 X116.322 Y107.609 F7800.000
G1 X116.697 Y110.429 F7800.000
G1 X116.538 Y112.480 F7800.000
G1 X115.136 Y114.415 F7800.000
G1 X115.059 Y114.745 F7800.000
G1 E10.00000 F2400.00000
G1 F900
G1 X117.245 Y112.559 E10.21878
G1 X117.245 Y111.794 E10.27286
G1 X115.536 Y113.503 E10.44380
G1 X115.675 Y113.312 E10.46047
G1 X115.867 Y112.408 E10.52589
G1 X117.245 Y111.030 E10.66375
G1 X117.245 Y110.266 E10.71782
G1 X116.073 Y111.437 E10.83504
G1 X116.198 Y110.851 E10.87742
G1 X116.145 Y110.602 E10.89549
G1 X117.245 Y109.502 E11.00555
G1 X117.245 Y108.738 E11.05963
G1 X116.011 Y109.971 E11.18310
G1 X115.877 Y109.341 E11.22870
G1 X117.245 Y107.974 E11.36558
G1 X117.245 Y107.209 E11.41965
G1 X115.743 Y108.711 E11.56994
G1 X115.675 Y108.391 E11.59310
G1 X115.517 Y108.173 E11.61215
G1 X116.898 Y106.792 E11.75039
G1 X116.516 Y106.410 E11.78863
G1 X115.195 Y107.731 E11.92082
G1 X114.874 Y107.288 E11.95954
G1 X116.134 Y106.028 E12.08567
G1 X115.752 Y105.646 E12.12391
G1 X114.552 Y106.845 E12.24399
G1 X114.230 Y106.403 E12.28270
G1 X115.370 Y105.263 E12.39673
G1 X114.988 Y104.881 E12.43496
G1 X113.763 Y106.106 E12.55750
G1 X113.279 Y105.826 E12.59709
G1 X114.606 Y104.499 E12.72988
G1 X114.224 Y104.117 E12.76811
G1 X112.794 Y105.546 E12.91114
G1 X112.310 Y105.267 E12.95073
G1 X113.841 Y103.735 E13.10400
G1 X113.459 Y103.353 E13.14224
G1 X111.743 Y105.069 E13.31400
G1 X111.052 Y104.997 E13.36320
G1 X112.793 Y103.255 E13.53746
G1 X112.029 Y103.255 E13.59153
G1 X110.360 Y104.924 E13.75852
G1 X109.669 Y104.851 E13.80772
G1 X111.265 Y103.255 E13.96743
G1 X110.500 Y103.255 E14.02151
G1 X108.634 Y105.122 E14.20830
G1 X107.502 Y105.490 E14.29253
G1 X109.736 Y103.255 E14.51614
G1 X108.972 Y103.255 E14.57021
G1 X97.483 Y114.745 E15.72002
G1 X96.719 Y114.745 E15.77410
G1 X108.208 Y103.255 E16.92391
G1 X107.444 Y103.255 E16.97799
G1 X95.954 Y114.745 E18.12780
G1 X95.190 Y114.745 E18.18187
G1 X106.680 Y103.255 E19.33169
G1 X105.915 Y103.255 E19.38576
G1 X94.426 Y114.745 E20.53557
G1 X93.662 Y114.745 E20.58965
G1 X105.151 Y103.255 E21.73946
G1 X104.387 Y103.255 E21.79354
G1 X92.898 Y114.745 E22.94335
G1 X92.134 Y114.745 E22.99743
G1 X103.623 Y103.255 E24.14724
G1 X102.859 Y103.255 E24.20131
G1 X91.369 Y114.745 E25.35113
G1 X90.605 Y114.745 E25.40520
G1 X102.095 Y103.255 E26.55501
G1 X101.330 Y103.255 E26.60909
G1 X89.841 Y114.745 E27.75890
G1 X89.077 Y114.745 E27.81298
G1 X100.566 Y103.255 E28.96279
G1 X99.802 Y103.255 E29.01686
G1 X88.313 Y114.745 E30.16668
G1 X87.549 Y114.745 E30.22075
G1 X99.038 Y103.255 E31.37056
G1 X98.274 Y103.255 E31.42464
G1 X82.755 Y118.774 E32.97766
G1 X82.755 Y118.010 E33.03174
G1 X97.510 Y103.255 E34.50829
G1 X96.745 Y103.255 E34.56236
G1 X82.755 Y117.245 E35.96244
G1 X82.755 Y116.481 E36.01651
G1 X95.981 Y103.255 E37.34011
G1 X95.217 Y103.255 E37.39419
G1 X82.755 Y115.717 E38.64131
G1 X82.755 Y114.953 E38.69539
G1 X94.453 Y103.255 E39.86603
G1 X93.689 Y103.255 E39.92011
G1 X82.755 Y114.189 E41.01428
G1 X82.755 Y113.425 E41.06836
G1 X92.925 Y103.255 E42.08606
G1 X92.160 Y103.255 E42.14013
G1 X82.755 Y112.660 E43.08135
G1 X82.755 Y112.108 E43.12047
G1 X83.266 Y111.386 E43.18301
G1 X91.396 Y103.255 E43.99670
G1 X90.632 Y103.255 E44.05077
G1 X85.110 Y108.777 E44.60335
G1 X86.955 Y106.168 E44.82947
G1 X89.868 Y103.255 E45.12095
G1 X89.104 Y103.255 E45.17503
G1 X88.801 Y103.558 E45.20535
G1 E35.20535 F2400.00000
G92 E0
G1 X110.415 Y115.613 F7800.000
G1 E10.00000 F2400.00000
G1 F900
G1 X111.563 Y115.552 E10.09881
G1 X110.415 Y115.613 F7800.000
G1 F900
G1 X109.841 Y115.643 E10.14109
G1 X109.305 Y115.571 E10.18085
G1 X108.014 Y115.366 F7800.000
G1 F900
G1 X107.893 Y115.347 E10.18141
G1 X107.805 Y115.296 E10.18188
G1 E0.18188 F2400.00000
G92 E0
G1 X115.328 Y100.000 F7800.000
G1 X108.097 Y93.116 F7800.000
G1 E10.00000 F2400.00000
G1 F900
G1 X106.735 Y91.890 E10.12854
G1 X105.990 Y90.216 E10.25707
G1 X105.990 Y88.384 E10.38560
G1 X106.735 Y86.710 E10.51414
G1 X108.097 Y85.484 E10.64268
G1 X109.839 Y84.917 E10.77121
G1 X111.662 Y85.109 E10.89975
G1 X113.249 Y86.025 E11.02828
G1 X114.326 Y87.508 E11.15682
G1 X114.707 Y89.300 E11.28535
G1 X114.326 Y91.092 E11.41389
G1 X113.249 Y92.575 E11.54242
G1 X111.662 Y93.491 E11.67096
G1 X109.839 Y93.683 E11.79950
G1 X108.154 Y93.135 E11.92382
G1 X108.097 Y93.116 F7800.000
G1 E1.92382 F2400.00000
G92 E0
G1 X87.629 Y84.871 F7800.000
G1 E10.00000 F2400.00000
G1 F900
G1 X107.176 Y84.871 E11.37115
G1 X105.849 Y86.066 E11.49641
G1 X104.918 Y88.156 E11.65689
G1 X104.918 Y90.444 E11.81736
G1 X105.849 Y92.534 E11.97784
G1 X107.549 Y94.065 E12.13832
G1 X109.725 Y94.772 E12.29880
G1 X112.000 Y94.533 E12.45928
G1 X113.981 Y93.389 E12.61976
G1 X115.326 Y91.538 E12.78024
G1 X115.802 Y89.300 E12.94072
G1 X115.326 Y87.062 E13.10120
G1 X113.981 Y85.211 E13.26168
G1 X113.805 Y85.109 E13.27597
G1 X113.869 Y84.871 E13.29327
G1 X115.432 Y84.871 E13.40292
G1 X117.629 Y87.068 E13.62084
G1 X117.629 Y92.932 E14.03218
G1 X113.432 Y97.129 E14.44850
G1 X88.675 Y97.129 E16.18511
G1 X82.371 Y88.214 E16.95097
G1 X82.371 Y55.810 E19.22395
G1 X87.629 Y61.068 E19.74550
G1 X87.629 Y84.811 E21.41098
G1 X88.164 Y84.336 F7800.000
G1 F900
G1 X109.019 Y84.336 E22.87388
G1 X109.062 Y84.607 E22.89313
G1 X107.823 Y85.009 E22.98456
G1 X106.292 Y86.388 E23.12907
G1 X105.454 Y88.270 E23.27358
G1 X105.454 Y90.330 E23.41808
G1 X106.292 Y92.212 E23.56258
G1 X107.823 Y93.591 E23.70710
G1 X109.782 Y94.227 E23.85160
G1 X111.831 Y94.012 E23.99611
G1 X113.615 Y92.982 E24.14061
G1 X114.826 Y91.315 E24.28512
G1 X115.254 Y89.300 E24.42963
G1 X114.826 Y87.285 E24.57414
G1 X113.615 Y85.618 E24.71865
G1 X111.806 Y84.574 E24.86517
G1 X111.870 Y84.336 E24.88247
G1 X115.654 Y84.336 E25.14790
G1 X118.164 Y86.846 E25.39695
G1 X118.164 Y93.154 E25.83941
G1 X113.654 Y97.664 E26.28685
G1 X88.398 Y97.664 E28.05848
G1 X81.836 Y88.384 E28.85572
G1 X81.836 Y54.846 E31.20829
G1 X82.000 Y54.682 E31.22460
G1 X88.164 Y60.846 E31.83611
G1 X88.164 Y84.276 E33.47959
G1 X88.700 Y83.800 F7800.000
G1 F900
G1 X115.876 Y83.800 E35.38585
G1 X118.700 Y86.624 E35.66602
G1 X118.700 Y93.376 E36.13960
G1 X113.876 Y98.200 E36.61818
G1 X88.120 Y98.200 E38.42481
G1 X81.300 Y88.555 E39.25345
G1 X81.300 Y54.624 E41.63352
G1 X82.000 Y53.924 E41.70296
G1 X88.700 Y60.624 E42.36760
G1 X88.700 Y83.740 E43.98907
G1 X88.729 Y84.199 F7800.000
G1 E33.98907 F2400.00000
G92 E0
G1 X107.805 Y84.704 F7800.000
G1 E10.00000 F2400.00000
G1 F900
G1 X107.893 Y84.653 E10.00046
G1 X108.014 Y84.634 E10.00102
G1 X109.305 Y84.429 F7800.000
G1 F900
G1 X109.841 Y84.357 E10.04079
G1 X110.415 Y84.387 E10.08307
G1 F900
G1 X111.563 Y84.448 E10.18188
G1 E0.18188 F2400.00000
G92 E0
G1 X115.403 Y85.297 F7800.000
G1 E10.00000 F2400.00000
G1 F900
G1 X114.848 Y85.852 E10.05519
G1 X115.167 Y86.292 E10.09334
G1 X115.782 Y85.676 E10.15450
G1 X116.162 Y86.055 E10.19218
G1 X115.486 Y86.731 E10.25931
G1 X115.675 Y86.991 E10.28188
G1 X115.729 Y87.246 E10.30023
G1 X116.541 Y86.435 E10.38088
G1 X116.920 Y86.814 E10.41857
G1 X115.862 Y87.872 E10.52369
G1 X115.995 Y88.498 E10.56862
G1 X117.245 Y87.248 E10.69276
G1 X117.245 Y88.007 E10.74605
G1 X116.128 Y89.123 E10.85697
G1 X116.198 Y89.451 E10.88054
G1 X116.101 Y89.910 E10.91344
G1 X117.245 Y88.765 E11.02710
G1 X117.245 Y89.524 E11.08039
G1 X115.896 Y90.873 E11.21441
G1 X115.691 Y91.836 E11.28360
G1 X117.245 Y90.283 E11.43796
G1 X117.245 Y91.041 E11.49125
G1 X111.541 Y96.745 E12.05788
G1 X112.300 Y96.745 E12.11117
G1 X117.245 Y91.800 E12.60243
G1 X117.245 Y92.559 E12.65573
G1 X113.059 Y96.745 E13.07162
G1 E3.07162 F2400.00000
G92 E0
G1 X110.783 Y96.745 F7800.000
G1 E10.00000 F2400.00000
G1 F900
G1 X113.042 Y94.486 E10.22442
G1 X112.321 Y94.902 E10.28289
G1 X111.814 Y94.955 E10.31872
G1 X110.024 Y96.745 E10.49651
G1 X109.265 Y96.745 E10.54981
G1 X110.966 Y95.044 E10.71874
G1 X110.118 Y95.133 E10.77862
G1 X108.507 Y96.745 E10.93871
G1 X107.748 Y96.745 E10.99200
G1 X109.449 Y95.044 E11.16093
G1 X108.876 Y94.858 E11.20322
G1 X106.990 Y96.745 E11.39063
G1 X106.231 Y96.745 E11.44392
G1 X108.303 Y94.672 E11.64981
G1 X107.731 Y94.486 E11.69211
G1 X105.472 Y96.745 E11.91648
G1 X104.714 Y96.745 E11.96977
G1 X107.240 Y94.219 E12.22071
G1 X106.840 Y93.859 E12.25845
G1 X103.955 Y96.745 E12.54509
