; generated by Slic3r 1.3.0-dev on 2018-09-08 at 09:00:45

; external perimeters extrusion width = 0.44mm (1.05mm^3/s)
; perimeters extrusion width = 0.56mm (2.69mm^3/s)
; infill extrusion width = 0.50mm (3.35mm^3/s)
; solid infill extrusion width = 0.56mm (1.08mm^3/s)
; top infill extrusion width = 0.56mm (0.81mm^3/s)

M107
M190 S50 ; set bed temperature and wait for it to be reached
M104 S210 ; set temperature
G28 ; home all axes
G1 Z5 F5000 ; lift nozzle

; Filament gcode

M109 S210 ; set temperature and wait for it to be reached
G21 ; set units to millimeters
G90 ; use absolute coordinates
M82 ; use absolute distances for extrusion
G92 E0
G1 Z0.300 F7800.000
G1 E-8.00000 F2400.00000
G92 E0
G1 X67.699 Y82.748 F7800.000
G1 E8.00000 F2400.00000
G1 F900
G1 X90.897 Y71.375 E9.72598
G1 X92.510 Y70.617 E9.84506
G1 X94.400 Y69.861 E9.98105
G1 X94.881 Y69.691 E10.01511
G1 X96.825 Y69.087 E10.15110
G1 X98.438 Y68.687 E10.26214
G1 X100.361 Y68.321 E10.39293
G1 X100.809 Y68.254 E10.42321
G1 X102.919 Y68.022 E10.56499
G1 X104.804 Y67.933 E10.69105
G1 X106.556 Y67.951 E10.80809
G1 X107.009 Y67.971 E10.83837
G1 X108.789 Y68.112 E10.95767
G1 X110.625 Y68.364 E11.08148
G1 X111.072 Y68.441 E11.11176
G1 X113.087 Y68.874 E11.24949
G1 X114.730 Y69.326 E11.36330
G1 X116.555 Y69.946 E11.49207
G1 X117.013 Y70.121 E11.52482
G1 X118.711 Y70.837 E11.64792
G1 X120.585 Y71.770 E11.78780
G1 X122.195 Y72.705 E11.91218
G1 X123.823 Y73.776 E12.04237
G1 X124.192 Y74.040 E12.07265
G1 X125.620 Y75.137 E12.19298
G1 X127.010 Y76.339 E12.31576
G1 X128.419 Y77.716 E12.44735
G1 X128.839 Y78.153 E12.48781
G1 X130.091 Y79.580 E12.61468
G1 X131.162 Y80.952 E12.73092
G1 X131.428 Y81.319 E12.76120
G1 X132.516 Y82.941 E12.89169
G1 X133.365 Y84.371 E13.00278
G1 X134.301 Y86.184 E13.13907
G1 X134.516 Y86.640 E13.17276
G1 X135.276 Y88.441 E13.30337
G1 X135.842 Y90.033 E13.41625
G1 X136.249 Y92.397 E13.57653
G1 X136.249 Y107.597 E14.59197
G1 X135.835 Y109.982 E14.75365
G1 X135.203 Y111.742 E14.87855
G1 X134.364 Y113.678 E15.01957
G1 X134.126 Y114.171 E15.05609
G1 X133.327 Y115.691 E15.17082
G1 X133.078 Y116.126 E15.20432
G1 X132.135 Y117.647 E15.32387
G1 X131.863 Y118.054 E15.35659
G1 X130.893 Y119.399 E15.46738
G1 X130.495 Y119.910 E15.51068
G1 X129.433 Y121.185 E15.62147
G1 X129.103 Y121.554 E15.65458
G1 X127.955 Y122.751 E15.76537
G1 X127.492 Y123.204 E15.80867
G1 X125.914 Y124.613 E15.94995
G1 X124.460 Y125.757 E16.07353
G1 X124.060 Y126.049 E16.10664
G1 X122.688 Y126.980 E16.21743
G1 X122.284 Y127.234 E16.24931
G1 X120.546 Y128.246 E16.38365
G1 X118.703 Y129.158 E16.52104
G1 X118.217 Y129.376 E16.55662
G1 X116.394 Y130.111 E16.68791
G1 X114.493 Y130.737 E16.82164
G1 X113.969 Y130.888 E16.85807
G1 X112.234 Y131.319 E16.97747
G1 X111.762 Y131.419 E17.00973
G1 X109.899 Y131.745 E17.13607
G1 X107.913 Y131.963 E17.26952
G1 X107.343 Y132.004 E17.30773
G1 X105.563 Y132.066 E17.42671
G1 X103.508 Y132.012 E17.56402
G1 X101.432 Y131.824 E17.70332
G1 X100.898 Y131.753 E17.73929
G1 X98.923 Y131.412 E17.87320
G1 X97.287 Y131.032 E17.98540
G1 X95.303 Y130.447 E18.12356
G1 X94.812 Y130.280 E18.15822
G1 X93.313 Y129.716 E18.26522
G1 X92.869 Y129.532 E18.29729
G1 X91.320 Y128.826 E18.41103
G1 X67.698 Y117.246 E20.16850
G1 X65.775 Y115.861 E20.32683
G1 X64.418 Y113.918 E20.48516
G1 X63.740 Y110.897 E20.69199
G1 X63.740 Y89.097 E22.14835
G1 X64.137 Y86.761 E22.30668
G1 X65.284 Y84.687 E22.46501
G1 X67.652 Y82.786 E22.66786
G1 X67.935 Y83.229 F7800.000
G1 F900
G1 X91.133 Y71.856 E24.39384
G1 X92.738 Y71.102 E24.51232
G1 X94.595 Y70.360 E24.64594
G1 X95.043 Y70.201 E24.67771
G1 X96.953 Y69.606 E24.81135
G1 X98.567 Y69.206 E24.92239
G1 X100.457 Y68.848 E25.05095
G1 X100.872 Y68.786 E25.07894
G1 X102.947 Y68.557 E25.21842
G1 X104.804 Y68.469 E25.34261
G1 X106.550 Y68.487 E25.45923
G1 X108.728 Y68.644 E25.60514
G1 X110.963 Y68.966 E25.75599
G1 X112.945 Y69.390 E25.89142
G1 X114.581 Y69.841 E26.00475
G1 X116.380 Y70.453 E26.13171
G1 X116.806 Y70.615 E26.16217
G1 X118.488 Y71.324 E26.28408
G1 X120.326 Y72.239 E26.42131
G1 X121.925 Y73.168 E26.54483
G1 X123.526 Y74.222 E26.67284
G1 X123.867 Y74.465 E26.70083
G1 X125.287 Y75.557 E26.82049
G1 X126.658 Y76.743 E26.94164
G1 X128.042 Y78.096 E27.07094
G1 X128.438 Y78.508 E27.10911
G1 X129.672 Y79.914 E27.23404
G1 X130.739 Y81.281 E27.34992
G1 X130.986 Y81.620 E27.37791
G1 X132.055 Y83.215 E27.50619
G1 X132.904 Y84.644 E27.61728
G1 X133.823 Y86.426 E27.75119
G1 X134.023 Y86.851 E27.78259
G1 X134.775 Y88.629 E27.91152
G1 X135.338 Y90.212 E28.02378
G1 X135.714 Y92.397 E28.17192
G1 X135.714 Y107.597 E29.18736
G1 X135.331 Y109.801 E29.33680
G1 X134.702 Y111.554 E29.46118
G1 X133.874 Y113.463 E29.60021
G1 X133.652 Y113.921 E29.63423
G1 X132.853 Y115.441 E29.74895
G1 X132.623 Y115.844 E29.77991
G1 X131.680 Y117.364 E29.89946
G1 X130.458 Y119.086 E30.04049
G1 X130.083 Y119.568 E30.08127
G1 X129.022 Y120.842 E30.19206
G1 X128.716 Y121.183 E30.22267
G1 X127.568 Y122.380 E30.33346
G1 X127.132 Y122.807 E30.37424
G1 X125.581 Y124.194 E30.51322
G1 X124.130 Y125.336 E30.63660
G1 X123.760 Y125.606 E30.66720
G1 X122.014 Y126.772 E30.80744
G1 X120.287 Y127.777 E30.94090
G1 X118.467 Y128.677 E31.07657
G1 X118.015 Y128.879 E31.10964
G1 X116.208 Y129.609 E31.23987
G1 X114.327 Y130.228 E31.37216
G1 X113.840 Y130.368 E31.40601
G1 X111.668 Y130.892 E31.55522
G1 X109.823 Y131.215 E31.68037
G1 X107.857 Y131.430 E31.81250
G1 X107.324 Y131.469 E31.84820
G1 X105.548 Y131.530 E31.96694
G1 X103.526 Y131.477 E32.10207
G1 X101.484 Y131.291 E32.23903
G1 X100.985 Y131.224 E32.27266
G1 X99.044 Y130.890 E32.40426
G1 X97.408 Y130.510 E32.51645
G1 X95.458 Y129.935 E32.65225
G1 X95.000 Y129.778 E32.68457
G1 X93.091 Y129.045 E32.82120
G1 X91.542 Y128.339 E32.93494
G1 X67.934 Y116.766 E34.69140
G1 X66.095 Y115.422 E34.84357
G1 X64.829 Y113.528 E34.99574
G1 X64.276 Y110.897 E35.17533
G1 X64.276 Y89.097 E36.63169
G1 X64.673 Y86.854 E36.78386
G1 X65.815 Y84.884 E36.93603
G1 X67.887 Y83.266 E37.11164
G1 E29.11164 F2400.00000
G92 E0
G1 X121.382 Y118.058 F7800.000
G1 E8.00000 F2400.00000
G1 F900
G1 X120.857 Y118.533 E8.04733
G1 X119.598 Y119.522 E8.15424
G1 X118.273 Y120.420 E8.26117
G1 X116.738 Y121.315 E8.37991
G1 X115.216 Y122.060 E8.49310
G1 X113.645 Y122.697 E8.60637
G1 X112.033 Y123.222 E8.71962
G1 X110.356 Y123.639 E8.83508
G1 X108.704 Y123.928 E8.94707
G1 X107.037 Y124.103 E9.05908
G1 X105.361 Y124.161 E9.17114
G1 X103.794 Y124.110 E9.27587
G1 X102.232 Y123.958 E9.38067
G1 X101.555 Y123.847 E9.42652
G1 X101.561 Y123.804 E9.42940
G1 X101.553 Y123.846 E9.43227
G1 X100.685 Y123.704 E9.49108
G1 X99.862 Y123.513 E9.54751
G1 X99.928 Y123.204 E9.56862
G1 X101.609 Y123.537 E9.68311
G1 X103.528 Y123.763 E9.81218
G1 X105.360 Y123.834 E9.93463
G1 X106.986 Y123.778 E10.04334
G1 X108.603 Y123.612 E10.15192
G1 X110.205 Y123.336 E10.26052
G1 X111.807 Y122.945 E10.37071
G1 X113.365 Y122.450 E10.47988
G1 X114.884 Y121.849 E10.58904
G1 X116.360 Y121.145 E10.69827
G1 X117.763 Y120.355 E10.80587
G1 X119.093 Y119.483 E10.91209
G1 X120.444 Y118.456 E11.02545
G1 X121.170 Y117.820 E11.08996
G1 X121.342 Y118.013 E11.10726
G1 X121.916 Y117.575 F7800.000
G1 F900
G1 X121.700 Y117.349 E11.12817
G1 X122.795 Y116.248 E11.23188
G1 X123.023 Y116.471 E11.25315
G1 X122.269 Y117.256 E11.32585
G1 X121.960 Y117.535 E11.35366
G1 X123.036 Y116.457 F7800.000
G1 F900
G1 X122.805 Y116.245 E11.37459
G1 X123.738 Y115.168 E11.46978
G1 X123.980 Y115.374 E11.49102
G1 X123.376 Y116.103 E11.55425
G1 X123.078 Y116.413 E11.58301
G1 X124.117 Y115.209 F7800.000
G1 F900
G1 X123.871 Y115.014 E11.60400
G1 X124.846 Y113.722 E11.71214
G1 X125.102 Y113.911 E11.73337
G1 X124.495 Y114.754 E11.80279
G1 X124.155 Y115.163 E11.83827
G1 X125.125 Y113.879 F7800.000
G1 F900
G1 X124.866 Y113.702 E11.85924
G1 X125.667 Y112.471 E11.95733
G1 X125.935 Y112.641 E11.97857
G1 X125.430 Y113.455 E12.04254
G1 X125.160 Y113.830 E12.07344
G1 X125.999 Y112.538 F7800.000
G1 F900
G1 X125.728 Y112.378 E12.09444
G1 X126.504 Y110.996 E12.20034
G1 X126.782 Y111.147 E12.22152
G1 X126.343 Y111.984 E12.28469
G1 X126.031 Y112.487 E12.32422
G1 X126.851 Y111.015 F7800.000
G1 F900
G1 X126.570 Y110.875 E12.34524
G1 X127.213 Y109.509 E12.44611
G1 X127.502 Y109.640 E12.46730
G1 X127.137 Y110.471 E12.52789
G1 X126.879 Y110.962 E12.56496
G1 X127.557 Y109.516 F7800.000
G1 F900
G1 X127.266 Y109.396 E12.58597
G1 X127.641 Y108.433 E12.65500
G1 X127.991 Y108.433 E12.67838
G1 X127.805 Y108.952 E12.71520
G1 X127.581 Y109.461 E12.75238
G1 E4.75238 F2400.00000
G92 E0
G1 X127.212 Y109.800 F7800.000
G1 X127.511 Y90.886 F7800.000
G1 X127.641 Y91.562 F7800.000
G1 E8.00000 F2400.00000
G1 F900
G1 X127.287 Y90.651 E8.06529
G1 X127.579 Y90.531 E8.08637
G1 X127.857 Y91.176 E8.13326
G1 X127.994 Y91.562 E8.16063
G1 X127.701 Y91.562 E8.18021
G1 X127.251 Y90.568 F7800.000
G1 F900
G1 X126.604 Y89.186 E8.28212
G1 X126.888 Y89.048 E8.30326
G1 X127.237 Y89.735 E8.35477
G1 X127.539 Y90.438 E8.40588
G1 X127.305 Y90.543 E8.42300
G1 X126.594 Y89.167 F7800.000
G1 F900
G1 X125.875 Y87.864 E8.52237
G1 X126.150 Y87.707 E8.54350
G1 X126.551 Y88.383 E8.59598
G1 X126.873 Y89.019 E8.64362
G1 X126.647 Y89.138 E8.66071
G1 X125.809 Y87.752 F7800.000
G1 F900
G1 X124.982 Y86.462 E8.76308
G1 X123.990 Y85.128 E8.87413
G1 X122.989 Y83.954 E8.97720
G1 X121.823 Y82.760 E9.08865
G1 X120.822 Y81.862 E9.17851
G1 X121.032 Y81.623 E9.19979
G1 X121.796 Y82.283 E9.26720
G1 X122.941 Y83.420 E9.37501
G1 X123.913 Y84.515 E9.47279
G1 X124.906 Y85.789 E9.58071
G1 X125.730 Y86.999 E9.67850
G1 X126.078 Y87.586 E9.72409
G1 X125.860 Y87.720 E9.74118
G1 E1.74118 F2400.00000
G92 E0
G1 X120.725 Y81.772 F7800.000
G1 E8.00000 F2400.00000
G1 F900
G1 X119.381 Y80.721 E8.11399
G1 X118.128 Y79.869 E8.21520
G1 X116.726 Y79.045 E8.32388
G1 X115.294 Y78.330 E8.43076
G1 X113.789 Y77.701 E8.53976
G1 X112.274 Y77.186 E8.64665
G1 X110.697 Y76.767 E8.75563
G1 X109.211 Y76.475 E8.85684
G1 X107.516 Y76.258 E8.97097
G1 X107.549 Y75.946 E8.99193
G1 X108.045 Y75.985 E9.02522
G1 X109.496 Y76.190 E9.12306
G1 X110.930 Y76.486 E9.22089
G1 X112.517 Y76.917 E9.33080
G1 X113.985 Y77.425 E9.43452
G1 X115.384 Y78.010 E9.53586
G1 X116.808 Y78.717 E9.64205
G1 X118.192 Y79.524 E9.74910
G1 X119.410 Y80.337 E9.84693
G1 X120.574 Y81.227 E9.94479
G1 X120.924 Y81.530 E9.97574
G1 X120.763 Y81.726 E9.99268
G1 E1.99268 F2400.00000
G92 E0
G1 X120.520 Y81.403 F7800.000
G1 X106.795 Y76.077 F7800.000
G1 X107.413 Y76.255 F7800.000
G1 E8.00000 F2400.00000
G1 F900
G1 X106.030 Y76.171 E8.09257
G1 X104.371 Y76.182 E8.20344
G1 X102.822 Y76.297 E8.30718
G1 X101.195 Y76.528 E8.41698
G1 X99.722 Y76.840 E8.51754
G1 X99.651 Y76.532 E8.53864
G1 X100.315 Y76.367 E8.58433
G1 X101.755 Y76.104 E8.68212
G1 X102.782 Y75.984 E8.75117
G1 X102.788 Y76.031 E8.75430
G1 X102.783 Y75.984 E8.75744
G1 X103.360 Y75.917 E8.79622
G1 X104.821 Y75.840 E8.89400
G1 X106.435 Y75.858 E9.00183
G1 X107.435 Y75.937 E9.06884
G1 X107.417 Y76.195 E9.08610
G1 E1.08610 F2400.00000
G92 E0
G1 X99.707 Y76.844 F7800.000
G1 E8.00000 F2400.00000
G1 F900
G1 X98.147 Y77.280 E8.10821
G1 X98.056 Y76.978 E8.12927
G1 X98.754 Y76.754 E8.17826
G1 X99.626 Y76.538 E8.23825
G1 X99.691 Y76.786 E8.25540
G1 X98.088 Y77.300 F7800.000
G1 F900
G1 X96.628 Y77.820 E8.35896
G1 X96.517 Y77.523 E8.38010
G1 X97.257 Y77.234 E8.43315
G1 X97.987 Y77.000 E8.48437
G1 X98.069 Y77.243 E8.50149
G1 X96.622 Y77.821 F7800.000
G1 F900
G1 X95.101 Y78.484 E8.61237
G1 X93.660 Y79.234 E8.72086
G1 X92.487 Y79.942 E8.81242
G1 X92.320 Y79.672 E8.83364
G1 X93.105 Y79.173 E8.89580
G1 X94.388 Y78.470 E8.99355
G1 X95.844 Y77.787 E9.10100
G1 X96.502 Y77.529 E9.14817
G1 X96.599 Y77.765 E9.16521
G1 E1.16521 F2400.00000
G92 E0
G1 X92.363 Y80.017 F7800.000
G1 E8.00000 F2400.00000
G1 F900
G1 X91.134 Y80.877 E8.10024
G1 X90.949 Y80.619 E8.12148
G1 X91.721 Y80.054 E8.18540
G1 X92.189 Y79.756 E8.22246
G1 X92.330 Y79.967 E8.23946
G1 X91.076 Y80.915 F7800.000
G1 F900
G1 X89.798 Y81.944 E8.34905
G1 X88.611 Y83.038 E8.45696
G1 X88.393 Y82.805 E8.47829
G1 X89.342 Y81.907 E8.56557
G1 X90.468 Y80.971 E8.66338
G1 X90.885 Y80.666 E8.69792
G1 X91.040 Y80.867 E8.71489
G1 E0.71489 F2400.00000
G92 E0
G1 X91.556 Y80.408 F7800.000
G1 X87.011 Y89.097 F7800.000
G1 X87.383 Y88.726 F7800.000
G1 E8.00000 F2400.00000
G1 F900
G1 X84.560 Y88.726 E8.18858
G1 X85.721 Y86.863 E8.33522
G1 X86.583 Y85.657 E8.43429
G1 X87.557 Y84.465 E8.53712
G1 X87.859 Y84.143 E8.56658
G1 X88.780 Y85.198 E8.66016
G1 X89.075 Y85.839 E8.70729
G1 X89.190 Y86.636 E8.76109
G1 X89.190 Y113.359 E10.54634
G1 X89.075 Y114.156 E10.60013
G1 X88.780 Y114.797 E10.64727
G1 X87.856 Y115.854 E10.74107
G1 X87.617 Y115.599 E10.76444
G1 X86.619 Y114.385 E10.86944
G1 X85.737 Y113.156 E10.97048
G1 X84.559 Y111.269 E11.11910
G1 X87.383 Y111.269 E11.30771
G1 X87.383 Y88.786 E12.80966
G1 X86.847 Y89.262 F7800.000
G1 F900
G1 X78.621 Y89.262 E13.35923
G1 X78.602 Y88.961 E13.37940
G1 X84.223 Y88.254 E13.75787
G1 X85.275 Y86.565 E13.89078
G1 X86.157 Y85.331 E13.99214
G1 X87.154 Y84.112 E14.09734
G1 X87.873 Y83.345 E14.16755
G1 X89.235 Y84.904 E14.30581
G1 X89.594 Y85.686 E14.36330
G1 X89.726 Y86.597 E14.42484
G1 X89.726 Y113.398 E16.21524
G1 X89.594 Y114.309 E16.27678
G1 X89.235 Y115.091 E16.33427
G1 X87.870 Y116.652 E16.47276
G1 X87.214 Y115.953 E16.53683
G1 X86.194 Y114.711 E16.64417
G1 X85.292 Y113.454 E16.74754
G1 X84.223 Y111.741 E16.88247
G1 X78.602 Y111.034 E17.26092
G1 X78.621 Y110.733 E17.28109
G1 X86.847 Y110.733 E17.83065
G1 X86.847 Y89.322 E19.26104
G1 E11.26104 F2400.00000
G92 E0
G1 X88.498 Y116.855 F7800.000
G1 E8.00000 F2400.00000
G1 F900
G1 X90.053 Y118.266 E8.14028
G1 X91.446 Y119.350 E8.25822
G1 X91.258 Y119.603 E8.27926
G1 X90.674 Y119.185 E8.32722
G1 X89.451 Y118.184 E8.43284
G1 X88.282 Y117.089 E8.53979
G1 X88.457 Y116.899 E8.55709
G1 E0.55709 F2400.00000
G92 E0
G1 X91.450 Y119.352 F7800.000
G1 E8.00000 F2400.00000
G1 F900
G1 X92.966 Y120.357 E8.12148
G1 X94.594 Y121.262 E8.24596
G1 X96.317 Y122.051 E8.37253
G1 X98.102 Y122.703 E8.49946
G1 X99.919 Y123.203 E8.62541
G1 X99.842 Y123.508 E8.64643
G1 X99.103 Y123.337 E8.69710
G1 X97.569 Y122.869 E8.80421
G1 X96.122 Y122.325 E8.90753
G1 X94.622 Y121.642 E9.01762
G1 X93.305 Y120.938 E9.11739
G1 X91.960 Y120.105 E9.22306
G1 X91.271 Y119.612 E9.27965
G1 X91.416 Y119.402 E9.29673
G1 E1.29673 F2400.00000
G92 E0
G1 X88.798 Y116.404 F7800.000
G1 E8.00000 F2400.00000
G1 F900
G1 X90.398 Y117.856 E8.14431
G1 X91.752 Y118.910 E8.25895
G1 X93.258 Y119.907 E8.37958
G1 X94.836 Y120.784 E8.50023
G1 X96.521 Y121.555 E8.62398
G1 X98.236 Y122.181 E8.74594
G1 X100.030 Y122.678 E8.87031
G1 X101.714 Y123.010 E8.98496
G1 X103.570 Y123.229 E9.10983
G1 X105.361 Y123.298 E9.22956
G1 X106.949 Y123.243 E9.33575
G1 X108.530 Y123.081 E9.44190
G1 X110.096 Y122.811 E9.54804
G1 X111.662 Y122.429 E9.65577
G1 X113.185 Y121.945 E9.76248
G1 X114.670 Y121.357 E9.86919
G1 X116.112 Y120.669 E9.97592
G1 X117.563 Y119.846 E10.08737
G1 X118.825 Y119.013 E10.18842
G1 X120.149 Y118.003 E10.29966
G1 X121.286 Y117.006 E10.40070
G1 X122.460 Y115.825 E10.51194
G1 X123.451 Y114.682 E10.61298
G1 X124.454 Y113.353 E10.72422
G1 X125.279 Y112.085 E10.82526
G1 X126.086 Y110.646 E10.93549
G1 X126.770 Y109.193 E11.04281
G1 X127.275 Y107.897 E11.13567
G1 X128.752 Y107.897 E11.23436
G1 X128.303 Y109.150 E11.32327
G1 X127.620 Y110.703 E11.43660
G1 X126.808 Y112.250 E11.55332
G1 X125.876 Y113.753 E11.67146
G1 X124.918 Y115.082 E11.78088
G1 X123.776 Y116.459 E11.90044
G1 X122.643 Y117.641 E12.00980
G1 X121.202 Y118.943 E12.13952
G1 X119.914 Y119.954 E12.24892
G1 X118.559 Y120.874 E12.35832
G1 X116.991 Y121.788 E12.47957
G1 X115.435 Y122.550 E12.59533
G1 X113.828 Y123.200 E12.71111
G1 X112.181 Y123.737 E12.82689
G1 X110.467 Y124.163 E12.94487
G1 X108.779 Y124.459 E13.05936
G1 X107.074 Y124.638 E13.17385
G1 X105.361 Y124.697 E13.28836
G1 X103.759 Y124.645 E13.39546
G1 X102.163 Y124.489 E13.50259
G1 X100.581 Y124.230 E13.60970
G1 X98.964 Y123.854 E13.72056
G1 X97.397 Y123.377 E13.83002
G1 X95.916 Y122.820 E13.93570
G1 X94.385 Y122.122 E14.04813
G1 X93.037 Y121.403 E14.15018
G1 X91.663 Y120.551 E14.25818
