; generated by Slic3r 1.3.0-dev on 2018-09-08 at 09:02:41

; external perimeters extrusion width = 0.44mm (1.05mm^3/s)
; perimeters extrusion width = 0.56mm (2.69mm^3/s)
; infill extrusion width = 0.50mm (3.35mm^3/s)
; solid infill extrusion width = 0.56mm (1.08mm^3/s)
; top infill extrusion width = 0.56mm (0.81mm^3/s)

M107
M190 S50 ; set bed temperature and wait for it to be reached
M104 S210 ; set temperature
G28 ; home all axes
G1 Z5 F5000 ; lift nozzle

; Filament gcode

M109 S210 ; set temperature and wait for it to be reached
G21 ; set units to millimeters
G90 ; use absolute coordinates
M82 ; use absolute distances for extrusion
G92 E0
G1 Z0.300 F7800.000
G1 E-8.00000 F2400.00000
G92 E0
G1 X90.017 Y89.797 F7800.000
G1 E8.00000 F2400.00000
G1 F900
G1 X90.601 Y89.245 E8.05369
G1 X91.217 Y88.726 E8.10753
G1 X91.860 Y88.244 E8.16122
G1 X92.532 Y87.798 E8.21507
G1 X93.226 Y87.393 E8.26875
G1 X93.944 Y87.026 E8.32260
G1 X94.679 Y86.702 E8.37631
G1 X97.530 Y86.102 E8.57092
G1 X102.470 Y86.102 E8.90094
G1 X105.321 Y86.702 E9.09556
G1 X106.057 Y87.026 E9.14927
G1 X106.774 Y87.393 E9.20310
G1 X107.468 Y87.798 E9.25678
G1 X108.140 Y88.244 E9.31063
G1 X108.783 Y88.726 E9.36433
G1 X109.399 Y89.245 E9.41816
G1 X109.983 Y89.797 E9.47185
G1 X110.420 Y90.248 E9.51379
G1 X118.293 Y99.138 E10.30712
G1 X119.545 Y101.151 E10.46545
G1 X120.071 Y103.827 E10.64765
G1 X120.071 Y106.827 E10.84806
G1 X119.674 Y109.163 E11.00639
G1 X118.527 Y111.237 E11.16472
G1 X116.759 Y112.816 E11.32305
G1 X114.569 Y113.721 E11.48138
G1 X113.000 Y113.898 E11.58688
G1 X87.000 Y113.898 E13.32382
G1 X84.663 Y113.501 E13.48215
G1 X82.589 Y112.354 E13.64048
G1 X81.011 Y110.586 E13.79881
G1 X80.105 Y108.396 E13.95714
G1 X79.929 Y106.827 E14.06264
G1 X79.929 Y103.827 E14.26305
G1 X80.326 Y101.490 E14.42138
G1 X81.707 Y99.138 E14.60357
G1 X89.580 Y90.248 E15.39691
G1 X89.975 Y89.840 E15.43484
G1 X90.385 Y90.187 F7800.000
G1 F900
G1 X90.969 Y89.635 E15.48852
G1 X91.539 Y89.155 E15.53829
G1 X92.182 Y88.673 E15.59198
G1 X92.802 Y88.261 E15.64175
G1 X93.496 Y87.855 E15.69543
G1 X94.160 Y87.516 E15.74520
G1 X94.895 Y87.192 E15.79891
G1 X97.530 Y86.638 E15.97878
G1 X102.470 Y86.638 E16.30879
G1 X105.105 Y87.192 E16.48868
G1 X105.841 Y87.517 E16.54239
G1 X106.504 Y87.855 E16.59214
G1 X107.198 Y88.261 E16.64582
G1 X107.818 Y88.673 E16.69559
G1 X108.462 Y89.155 E16.74929
G1 X109.031 Y89.635 E16.79905
G1 X109.615 Y90.187 E16.85273
G1 X110.019 Y90.604 E16.89150
G1 X117.893 Y99.493 E17.68483
G1 X119.083 Y101.436 E17.83700
G1 X119.536 Y103.827 E17.99958
G1 X119.536 Y106.827 E18.19999
G1 X119.139 Y109.070 E18.35216
G1 X117.996 Y111.040 E18.50434
G1 X116.247 Y112.499 E18.65651
G1 X113.000 Y113.362 E18.88094
G1 X87.000 Y113.362 E20.61788
G1 X84.757 Y112.965 E20.77005
G1 X82.787 Y111.823 E20.92222
G1 X81.328 Y110.073 E21.07439
G1 X80.464 Y106.827 E21.29882
G1 X80.464 Y103.827 E21.49924
G1 X80.861 Y101.584 E21.65141
G1 X82.107 Y99.493 E21.81398
G1 X89.981 Y90.604 E22.60732
G1 X90.343 Y90.230 E22.64207
G1 E14.64207 F2400.00000
G92 E0
G1 X99.186 Y105.455 F7800.000
G1 E8.00000 F2400.00000
G1 F900
G1 X96.852 Y105.455 E8.15592
G1 X95.605 Y103.442 E8.31414
G1 X95.829 Y103.265 E8.33328
G1 X96.669 Y104.107 E8.41276
G1 X97.906 Y104.822 E8.50820
G1 X99.223 Y105.176 E8.59931
G1 X99.194 Y105.396 E8.61412
G1 X100.777 Y105.176 F7800.000
G1 F900
G1 X102.094 Y104.822 E8.70523
G1 X103.331 Y104.107 E8.80067
G1 X104.171 Y103.265 E8.88016
G1 X104.395 Y103.442 E8.89930
G1 X103.148 Y105.455 E9.05752
G1 X100.814 Y105.455 E9.21343
G1 X100.785 Y105.235 E9.22825
G1 E1.22825 F2400.00000
G92 E0
G1 X104.269 Y104.662 F7800.000
G1 E8.00000 F2400.00000
G1 F900
G1 X112.164 Y104.662 E8.52742
G1 X112.164 Y105.991 E8.61619
G1 X87.836 Y105.991 E10.24148
G1 X87.836 Y104.662 E10.33025
G1 X95.731 Y104.662 E10.85768
G1 X94.541 Y102.744 E11.00846
G1 X94.239 Y102.103 E11.05577
G1 X94.012 Y101.433 E11.10309
G1 X93.862 Y100.740 E11.15040
G1 X93.792 Y100.036 E11.19771
G1 X93.803 Y99.327 E11.24502
G1 X93.895 Y98.625 E11.29234
G1 X94.065 Y97.938 E11.33965
G1 X94.313 Y97.274 E11.38696
G1 X94.635 Y96.643 E11.43427
G1 X95.026 Y96.053 E11.48159
G1 X95.482 Y95.511 E11.52890
G1 X95.997 Y95.025 E11.57621
G1 X96.694 Y94.502 E11.63443
G1 X96.694 Y96.181 E11.74657
G1 X96.106 Y96.765 E11.80196
G1 X95.458 Y97.877 E11.88796
G1 X95.121 Y99.120 E11.97395
G1 X95.118 Y100.407 E12.05995
G1 X95.448 Y101.651 E12.14595
G1 X96.090 Y102.767 E12.23195
G1 X96.999 Y103.679 E12.31795
G1 X98.113 Y104.323 E12.40395
G1 X99.328 Y104.650 E12.48798
G1 X100.641 Y104.658 E12.57571
G1 X101.887 Y104.323 E12.66188
G1 X103.001 Y103.679 E12.74788
G1 X103.910 Y102.767 E12.83388
G1 X104.552 Y101.651 E12.91988
G1 X104.882 Y100.407 E13.00588
G1 X104.879 Y99.120 E13.09188
G1 X104.542 Y97.877 E13.17788
G1 X103.894 Y96.765 E13.26388
G1 X103.306 Y96.181 E13.31926
G1 X103.306 Y94.502 E13.43140
G1 X104.003 Y95.025 E13.48962
G1 X104.518 Y95.511 E13.53693
G1 X104.974 Y96.053 E13.58425
G1 X105.365 Y96.643 E13.63156
G1 X105.687 Y97.274 E13.67887
G1 X105.935 Y97.938 E13.72618
G1 X106.105 Y98.625 E13.77349
G1 X106.197 Y99.327 E13.82081
G1 X106.208 Y100.036 E13.86812
G1 X106.138 Y100.740 E13.91543
G1 X105.988 Y101.433 E13.96274
G1 X105.761 Y102.103 E14.01006
G1 X105.459 Y102.744 E14.05737
G1 X104.301 Y104.611 E14.20415
G1 X105.232 Y104.127 F7800.000
G1 F900
G1 X112.700 Y104.127 E14.70307
G1 X112.700 Y106.527 E14.86340
G1 X87.300 Y106.527 E16.56026
G1 X87.300 Y104.127 E16.72059
G1 X94.768 Y104.127 E17.21952
G1 X94.070 Y103.000 E17.30806
G1 X93.742 Y102.304 E17.35946
G1 X93.495 Y101.576 E17.41086
G1 X93.332 Y100.824 E17.46226
G1 X93.256 Y100.058 E17.51365
G1 X93.268 Y99.289 E17.56505
G1 X93.367 Y98.526 E17.61645
G1 X93.553 Y97.779 E17.66785
G1 X93.822 Y97.058 E17.71925
G1 X94.172 Y96.373 E17.77064
G1 X94.597 Y95.732 E17.82204
G1 X95.092 Y95.143 E17.87344
G1 X95.651 Y94.615 E17.92484
G1 X96.267 Y94.153 E17.97623
G1 X96.931 Y93.765 E18.02763
G1 X97.230 Y93.633 E18.04944
G1 X97.230 Y96.404 E18.23455
G1 X96.533 Y97.095 E18.30012
G1 X95.957 Y98.086 E18.37668
G1 X95.657 Y99.192 E18.45324
G1 X95.654 Y100.338 E18.52980
G1 X95.948 Y101.446 E18.60636
G1 X96.519 Y102.439 E18.68292
G1 X97.328 Y103.251 E18.75948
G1 X98.320 Y103.824 E18.83604
G1 X99.400 Y104.114 E18.91076
G1 X100.572 Y104.122 E18.98904
G1 X101.680 Y103.824 E19.06567
G1 X102.672 Y103.251 E19.14223
G1 X103.481 Y102.439 E19.21879
G1 X104.052 Y101.446 E19.29535
G1 X104.346 Y100.338 E19.37191
G1 X104.343 Y99.192 E19.44847
G1 X104.043 Y98.086 E19.52503
G1 X103.467 Y97.095 E19.60159
G1 X102.770 Y96.404 E19.66716
G1 X102.770 Y93.633 E19.85227
G1 X103.051 Y93.757 E19.87276
G1 X103.733 Y94.154 E19.92549
G1 X104.349 Y94.615 E19.97686
G1 X104.908 Y95.143 E20.02826
G1 X105.403 Y95.732 E20.07966
G1 X105.828 Y96.373 E20.13106
G1 X106.178 Y97.058 E20.18246
G1 X106.447 Y97.779 E20.23385
G1 X106.633 Y98.526 E20.28525
G1 X106.732 Y99.289 E20.33665
G1 X106.744 Y100.058 E20.38805
G1 X106.668 Y100.824 E20.43944
G1 X106.505 Y101.576 E20.49084
G1 X106.258 Y102.304 E20.54224
G1 X105.930 Y103.000 E20.59364
G1 X105.263 Y104.076 E20.67818
G1 X105.164 Y104.521 F7800.000
G1 X104.446 Y103.141 F7800.000
G1 F900
G1 X104.874 Y102.426 E20.75401
G1 X105.127 Y101.941 E20.80378
G1 X105.346 Y101.255 E20.86934
G1 X105.494 Y100.639 E20.92698
G1 X105.523 Y100.441 E20.94524
G1 X105.544 Y100.008 E20.98469
G1 X105.519 Y99.083 E21.06892
G1 X105.459 Y98.747 E21.09996
G1 X105.299 Y98.135 E21.15756
G1 X105.152 Y97.675 E21.20147
G1 X104.789 Y96.980 E21.27287
G1 X104.371 Y96.334 E21.34288
G1 X104.034 Y95.968 E21.38818
G1 X103.573 Y95.522 E21.44653
G1 E13.44653 F2400.00000
G92 E0
G1 X104.786 Y96.982 F7800.000
G1 X105.296 Y98.136 F7800.000
G1 X105.508 Y99.096 F7800.000
G1 X105.514 Y100.427 F7800.000
G1 X105.159 Y101.860 F7800.000
G1 X104.411 Y103.191 F7800.000
G1 X103.144 Y104.880 F7800.000
G1 X100.665 Y105.324 F7800.000
G1 X99.202 Y105.315 F7800.000
G1 X96.856 Y104.880 F7800.000
G1 X95.605 Y103.220 F7800.000
G1 X94.841 Y101.860 F7800.000
G1 X94.486 Y100.427 F7800.000
G1 X94.492 Y99.096 F7800.000
G1 X94.704 Y98.136 F7800.000
G1 X95.214 Y96.982 F7800.000
G1 X96.427 Y95.522 F7800.000
G1 E8.00000 F2400.00000
G1 F900
G1 X95.966 Y95.968 E8.05824
G1 X95.629 Y96.334 E8.10346
G1 X95.211 Y96.980 E8.17333
G1 X94.848 Y97.675 E8.24459
G1 X94.701 Y98.135 E8.28842
G1 X94.541 Y98.747 E8.34591
G1 X94.481 Y99.083 E8.37689
G1 X94.456 Y100.008 E8.46097
G1 X94.477 Y100.441 E8.50033
G1 X94.506 Y100.639 E8.51857
G1 X94.654 Y101.255 E8.57609
G1 X94.873 Y101.941 E8.64153
G1 X95.126 Y102.426 E8.69120
G1 X95.554 Y103.141 E8.76690
G1 E0.76690 F2400.00000
G92 E0
G1 X96.849 Y104.941 F7800.000
G1 E8.00000 F2400.00000
G1 F900
G1 X97.996 Y105.156 E8.00775
G1 X96.457 Y105.327 F7800.000
G1 F900
G1 X88.103 Y105.327 E8.76709
G1 E0.76709 F2400.00000
G92 E0
G1 X102.004 Y105.156 F7800.000
G1 E8.00000 F2400.00000
G1 F900
G1 X103.151 Y104.941 E8.00867
G1 X103.543 Y105.327 F7800.000
G1 F900
G1 X111.897 Y105.327 E8.76801
M104 S195 ; set temperature
G1 Z0.400 F7800.000
G1 X103.548 Y105.064 F7800.000
G1 F3000
G1 X111.763 Y105.064 E8.95194
G1 X111.763 Y105.589 E8.96371
G1 X88.237 Y105.589 E9.49045
G1 X88.237 Y105.064 E9.50223
G1 X96.452 Y105.064 E9.68615
G1 X94.895 Y102.552 E9.75232
G1 X94.612 Y101.953 E9.76715
G1 X94.399 Y101.325 E9.78198
G1 X94.259 Y100.678 E9.79682
G1 X94.194 Y100.019 E9.81165
G1 X94.204 Y99.357 E9.82648
G1 X94.290 Y98.700 E9.84131
G1 X94.449 Y98.057 E9.85614
G1 X94.681 Y97.436 E9.87097
G1 X94.982 Y96.846 E9.88580
G1 X95.348 Y96.294 E9.90063
G1 X95.775 Y95.787 E9.91546
G1 X96.293 Y95.298 E9.93143
G1 X96.293 Y96.014 E9.94746
G1 X95.786 Y96.517 E9.96346
G1 X95.085 Y97.721 E9.99466
G1 X94.720 Y99.066 E10.02585
G1 X94.716 Y100.459 E10.05704
G1 X95.074 Y101.806 E10.08824
G1 X95.768 Y103.013 E10.11943
G1 X96.752 Y104.000 E10.15062
G1 X97.958 Y104.697 E10.18182
G1 X99.303 Y105.059 E10.21301
G1 X100.697 Y105.059 E10.24420
G1 X102.042 Y104.697 E10.27540
G1 X103.248 Y104.000 E10.30659
G1 X104.232 Y103.013 E10.33778
G1 X104.926 Y101.806 E10.36898
G1 X105.284 Y100.459 E10.40017
G1 X105.280 Y99.066 E10.43136
G1 X104.915 Y97.721 E10.46256
G1 X104.214 Y96.517 E10.49375
G1 X103.707 Y96.014 E10.50975
G1 X103.707 Y95.298 E10.52579
G1 X104.225 Y95.787 E10.54175
G1 X104.652 Y96.294 E10.55658
G1 X105.018 Y96.846 E10.57141
G1 X105.319 Y97.436 E10.58624
G1 X105.551 Y98.057 E10.60108
G1 X105.710 Y98.700 E10.61591
G1 X105.796 Y99.357 E10.63074
G1 X105.806 Y100.019 E10.64557
G1 X105.741 Y100.678 E10.66040
G1 X105.601 Y101.325 E10.67523
G1 X105.388 Y101.953 E10.69006
G1 X105.105 Y102.552 E10.70489
G1 X103.580 Y105.013 E10.76972
G1 X104.516 Y104.525 F7800.000
G1 F3000
G1 X112.301 Y104.525 E10.94404
G1 X112.301 Y106.128 E10.97993
G1 X87.699 Y106.128 E11.53078
G1 X87.699 Y104.525 E11.56667
G1 X95.484 Y104.525 E11.74099
G1 X94.421 Y102.809 E11.78619
G1 X94.112 Y102.155 E11.80240
G1 X93.879 Y101.469 E11.81861
G1 X93.727 Y100.762 E11.83481
G1 X93.655 Y100.041 E11.85102
G1 X93.666 Y99.318 E11.86723
G1 X93.760 Y98.600 E11.88343
G1 X93.934 Y97.897 E11.89964
G1 X94.187 Y97.219 E11.91585
G1 X94.516 Y96.574 E11.93206
G1 X94.916 Y95.971 E11.94826
G1 X95.382 Y95.417 E11.96447
G1 X95.909 Y94.920 E11.98068
G1 X96.488 Y94.486 E11.99689
G1 X96.831 Y94.285 E12.00580
G1 X96.831 Y96.238 E12.04953
G1 X96.215 Y96.850 E12.06897
G1 X95.586 Y97.931 E12.09698
G1 X95.258 Y99.138 E12.12499
G1 X95.255 Y100.389 E12.15300
G1 X95.576 Y101.599 E12.18102
G1 X96.200 Y102.683 E12.20903
G1 X97.083 Y103.569 E12.23704
G1 X98.166 Y104.196 E12.26506
G1 X99.374 Y104.520 E12.29307
G1 X100.626 Y104.520 E12.32108
G1 X101.834 Y104.196 E12.34909
G1 X102.917 Y103.569 E12.37711
G1 X103.800 Y102.683 E12.40512
G1 X104.424 Y101.599 E12.43313
G1 X104.745 Y100.389 E12.46115
G1 X104.742 Y99.138 E12.48916
G1 X104.414 Y97.931 E12.51717
G1 X103.785 Y96.850 E12.54519
G1 X103.169 Y96.238 E12.56462
G1 X103.169 Y94.288 E12.60828
G1 X103.514 Y94.487 E12.61721
G1 X104.091 Y94.920 E12.63337
G1 X104.618 Y95.417 E12.64957
G1 X105.084 Y95.971 E12.66578
G1 X105.484 Y96.574 E12.68199
G1 X105.813 Y97.219 E12.69819
G1 X106.066 Y97.897 E12.71440
G1 X106.240 Y98.600 E12.73061
G1 X106.334 Y99.318 E12.74682
G1 X106.345 Y100.041 E12.76302
G1 X106.273 Y100.762 E12.77923
G1 X106.121 Y101.469 E12.79544
G1 X105.888 Y102.155 E12.81164
G1 X105.579 Y102.809 E12.82785
G1 X104.547 Y104.474 E12.87171
G1 X105.375 Y104.047 F7800.000
G1 F1500
G1 X112.780 Y104.047 E13.00055
G1 X112.780 Y106.607 E13.04510
G1 X87.220 Y106.607 E13.48986
G1 X87.220 Y104.047 E13.53441
G1 X94.625 Y104.047 E13.66326
G1 X94.000 Y103.038 E13.68390
G1 X93.667 Y102.334 E13.69745
G1 X93.417 Y101.597 E13.71099
G1 X93.253 Y100.836 E13.72454
G1 X93.176 Y100.061 E13.73809
G1 X93.188 Y99.283 E13.75163
G1 X93.289 Y98.511 E13.76518
G1 X93.476 Y97.755 E13.77873
G1 X93.749 Y97.026 E13.79227
G1 X94.102 Y96.333 E13.80582
G1 X94.533 Y95.684 E13.81936
G1 X95.034 Y95.088 E13.83291
G1 X95.600 Y94.553 E13.84646
G1 X96.223 Y94.087 E13.86000
G1 X96.895 Y93.694 E13.87355
G1 X97.310 Y93.511 E13.88145
G1 X97.310 Y96.438 E13.93238
G1 X96.597 Y97.145 E13.94985
G1 X96.031 Y98.117 E13.96943
G1 X95.737 Y99.203 E13.98900
G1 X95.734 Y100.328 E14.00857
G1 X96.022 Y101.415 E14.02815
G1 X96.583 Y102.390 E14.04772
G1 X97.377 Y103.187 E14.06730
G1 X98.351 Y103.750 E14.08687
G1 X99.438 Y104.042 E14.10645
G1 X100.562 Y104.042 E14.12602
G1 X101.649 Y103.750 E14.14560
G1 X102.623 Y103.187 E14.16517
G1 X103.417 Y102.390 E14.18475
G1 X103.978 Y101.415 E14.20432
G1 X104.266 Y100.328 E14.22390
G1 X104.263 Y99.203 E14.24347
G1 X103.969 Y98.117 E14.26305
G1 X103.403 Y97.145 E14.28262
G1 X102.690 Y96.438 E14.30010
G1 X102.690 Y93.511 E14.35102
G1 X103.063 Y93.675 E14.35812
G1 X103.778 Y94.087 E14.37247
G1 X104.400 Y94.553 E14.38601
G1 X104.966 Y95.088 E14.39955
G1 X105.467 Y95.684 E14.41310
G1 X105.898 Y96.333 E14.42665
G1 X106.251 Y97.026 E14.44019
G1 X106.524 Y97.755 E14.45374
G1 X106.711 Y98.511 E14.46729
G1 X106.812 Y99.283 E14.48083
G1 X106.824 Y100.061 E14.49438
G1 X106.747 Y100.836 E14.50793
G1 X106.583 Y101.597 E14.52147
G1 X106.333 Y102.334 E14.53502
G1 X106.000 Y103.038 E14.54857
G1 X105.407 Y103.996 E14.56816
G1 X105.308 Y104.441 F7800.000
G1 X104.161 Y103.508 F7800.000
G1 F1200
G1 X103.904 Y103.833 E14.56974
G1 F1200
G1 X103.647 Y104.157 E14.57289
G1 F1200
G1 X103.491 Y104.349 E14.57571
G1 X102.246 Y105.121 F7800.000
G1 F1200
G1 X102.022 Y105.154 E14.57927
G1 F1200
G1 X101.675 Y105.200 E14.58381
G1 F1200
G1 X101.329 Y105.245 E14.58706
G1 F1200
G1 X100.982 Y105.291 E14.58902
G1 X99.018 Y105.291 F7800.000
G1 F1200
G1 X98.671 Y105.245 E14.59033
G1 F1200
G1 X98.325 Y105.200 E14.59293
G1 F1200
G1 X97.978 Y105.154 E14.59683
G1 F1200
G1 X97.754 Y105.121 E14.60019
G1 X96.509 Y104.349 F7800.000
G1 F1200
G1 X96.353 Y104.157 E14.60316
G1 F1200
G1 X96.096 Y103.833 E14.60710
G1 F1200
G1 X95.839 Y103.508 E14.60946
G1 Z0.500 F7800.000
G1 X103.548 Y105.064 F7800.000
G1 F3000
G1 X111.763 Y105.064 E14.79339
G1 X111.763 Y105.589 E14.80516
G1 X88.237 Y105.589 E15.33190
G1 X88.237 Y105.064 E15.34367
G1 X96.452 Y105.064 E15.52760
G1 X94.895 Y102.552 E15.59377
G1 X94.612 Y101.953 E15.60860
G1 X94.399 Y101.325 E15.62343
G1 X94.259 Y100.678 E15.63826
G1 X94.194 Y100.019 E15.65309
G1 X94.204 Y99.357 E15.66792
G1 X94.290 Y98.700 E15.68275
G1 X94.449 Y98.057 E15.69758
G1 X94.681 Y97.436 E15.71241
G1 X94.982 Y96.846 E15.72724
G1 X95.348 Y96.294 E15.74208
G1 X95.775 Y95.787 E15.75691
G1 X96.293 Y95.298 E15.77287
G1 X96.293 Y96.014 E15.78891
G1 X95.786 Y96.517 E15.80491
G1 X95.085 Y97.721 E15.83610
G1 X94.720 Y99.066 E15.86730
G1 X94.716 Y100.459 E15.89849
G1 X95.074 Y101.806 E15.92968
G1 X95.768 Y103.013 E15.96088
G1 X96.752 Y104.000 E15.99207
G1 X97.958 Y104.697 E16.02326
G1 X99.303 Y105.059 E16.05446
G1 X100.697 Y105.059 E16.08565
G1 X102.042 Y104.697 E16.11684
G1 X103.248 Y104.000 E16.14804
G1 X104.232 Y103.013 E16.17923
G1 X104.926 Y101.806 E16.21042
G1 X105.284 Y100.459 E16.24162
G1 X105.280 Y99.066 E16.27281
G1 X104.915 Y97.721 E16.30400
G1 X104.214 Y96.517 E16.33520
G1 X103.707 Y96.014 E16.35120
G1 X103.707 Y95.298 E16.36723
G1 X104.225 Y95.787 E16.38320
